!!!!SEGMENT: pl-wn--mus-iii-127-131-cim_katski-apolinary--le-depart-du-chevalier-op-11.krn
!!!cenid: 18xx:3638
!!!COM: Kątski, Apolinary
!!!COM-rismid: pe30020040
!!!CDT: 1825-1879
!!!CNT: Polish
!!!OTL: Le départ du chevalier op. 11
!!!PDT: 1856
!!!AGN:
!!!SMS-siglum: PL-Wn
!!!SMS-shelfmark: Mus.III.127.131 Cim.
!!!SMS-shelfwork: W
!!!SMS-variant:
!!!SMS-altvar:
!!!NIFC-rismid:
!!!URL-scan: https://polona.pl/item/le-depart-du-chevalier-morceau-caracteristique-pour-violon-avec-accompagnement-de,NTgwNDg4ODQ/0/#info:metadata
!!!ONB-nifc:
!!!AIN: 1 piano 1 violn
!!!key: G
**kern	**kern	**dynam	**kern	**fing	**dynam
*part2	*part2	*part2	*part1	*part1	*part1
*staff3	*staff2	*	*staff1	*staff1	*
*I"INTRODUCTION.	*I"INTRODUCTION.	*	*I"[Violin]	*	*
*Ipiano	*Ipiano	*	*Ivioln	*	*
*ICklav	*ICklav	*	*ICstr	*	*
*IGacmp	*IGacmp	*	*IGsolo	*	*
*clefF4	*clefG2	*	*clefG2	*	*
*k[f#]	*k[f#]	*	*k[f#]	*	*
*G:	*G:	*	*G:	*	*
*M6/8	*M6/8	*	*M6/8	*	*
=1	=1	=1	=1	=1	=1
!	!LO:TX:a:B:t=Allegro vivace.	!	!	!	!
2.r	4g/	sf	2.ryy	.	.
.	8r	.	.	.	.
.	4r	.	.	.	.
.	16d/LL	.	.	.	.
.	16d/JJ	.	.	.	.
=2	=2	=2	=2	=2	=2
2.r	4g/	sf	2.ryy	.	.
.	8r	.	.	.	.
.	4r	.	.	.	.
.	16d/LL	.	.	.	.
.	16d/JJ	.	.	.	.
=3	=3	=3	=3	=3	=3
2.r	4g^/	.	2.ryy	.	.
.	16d/LL	.	.	.	.
.	16d/JJ	.	.	.	.
.	4g^/	.	.	.	.
.	16d/LL	.	.	.	.
.	16d/JJ	.	.	.	.
=4	=4	=4	=4	=4	=4
2.r	8g^^</L	.	2.ryy	.	.
.	8d^^</	.	.	.	.
.	8g^^</J	.	.	.	.
.	8g^^</L	.	.	.	.
.	8d^^</	.	.	.	.
.	8g^^</J	.	.	.	.
=5	=5	=5	=5	=5	=5
4g\	4b/	sf	2.ryy	.	.
8r	8r	.	.	.	.
4r	4r	.	.	.	.
16d\LL	16g/LL	.	.	.	.
16d\JJ	16g/JJ	.	.	.	.
=6	=6	=6	=6	=6	=6
4g\	4b/	sf	2.ryy	.	.
8r	8r	.	.	.	.
4r	4r	.	.	.	.
16d\LL	16g/LL	.	.	.	.
16d\JJ	16g/JJ	.	.	.	.
!!LO:LB:g=original
=7	=7	=7	=7	=7	=7
4g\	4b/	sf	2.ryy	.	.
16d\LL	16g/LL	.	.	.	.
16d\JJ	16g/JJ	.	.	.	.
4g\	4b/	sf	.	.	.
16d\LL	16g/LL	.	.	.	.
16d\JJ	16g/JJ	.	.	.	.
=8	=8	=8	=8	=8	=8
8g\L	8b^/L	.	2.ryy	.	.
8d\	8g^/	.	.	.	.
8g\J	8b^/J	.	.	.	.
8g\L	8b^/L	.	.	.	.
8d\	8g^/	.	.	.	.
8g\J	8b^/J	.	.	.	.
=9	=9	=9	=9	=9	=9
8cL 8D\	8ddL 8a 8f#/	ff	2.ryy	.	.
16cL 16D\	16ddL 16a 16f#/	.	.	.	.
16cJ 16D\	16ddJ 16a 16f#/	.	.	.	.
8cJ 8D\	8ddJ 8a 8f#/	.	.	.	.
8cL 8D\	8ddL 8a 8f#/	.	.	.	.
8c 8D\	8dd 8a 8f#/	.	.	.	.
8cJ 8D\	8ddJ 8a 8f#/	.	.	.	.
=10	=10	=10	=10	=10	=10
8B 8G\	8ggL 8dd 8b 8g\	.	2.ryy	.	.
8r	8dd\	.	.	.	.
8r	8b\J	.	.	.	.
4r	8dd\L	.	.	.	.
.	8b\	.	.	.	.
8r	8g\J	.	.	.	.
=11	=11	=11	=11	=11	=11
8cL 8D\	8ddL 8a 8f#/	.	2.ryy	.	.
16cL 16D\	16ddL 16a 16f#/	.	.	.	.
16cJ 16D\	16ddJ 16a 16f#/	.	.	.	.
8cJ 8D\	8ddJ 8a 8f#/	.	.	.	.
8cL 8D\	8ddL 8a 8f#/	.	.	.	.
8c 8D\	8dd 8a 8f#/	.	.	.	.
8cJ 8D\	8ddJ 8a 8f#/	.	.	.	.
=12	=12	=12	=12	=12	=12
8B 8G\	8ggL 8dd 8b 8g\	.	2.ryy	.	.
8r	8dd\	.	.	.	.
8r	8b\J	.	.	.	.
4r	8dd\L	.	.	.	.
.	8b\	.	.	.	.
8r	8g\J	.	.	.	.
!!LO:LB:g=original
=13	=13	=13	=13	=13	=13
8dL 8A 8D\	8ddL 8a 8f#/	.	2.ryy	.	.
16r	16r	.	.	.	.
16dK 16A 16D\	16ddK 16a 16f#/	.	.	.	.
8dJ 8A 8D\	8ddJ 8a 8f#/	.	.	.	.
8dL 8A 8D\	8ddL 8a 8f#/	.	.	.	.
8d 8A 8D\	8dd 8a 8f#/	.	.	.	.
8dJ 8A 8D\	8ddJ 8a 8f#/	.	.	.	.
=14	=14	=14	=14	=14	=14
8dL 8A 8D\	8ddL 8a 8f#/	.	2.ryy	.	.
16r	16r	.	.	.	.
16dK 16A 16D\	16ddK 16a 16f#/	.	.	.	.
8dJ 8A 8D\	8ddJ 8a 8f#/	.	.	.	.
8dL 8A 8D\	8ddL 8a 8f#/	.	.	.	.
8d 8A 8D\	8dd 8a 8f#/	.	.	.	.
8dJ 8A 8D\	8ddJ 8a 8f#/	.	.	.	.
=15	=15	=15	=15	=15	=15
4d 4A 4D\	4dd 4a 4f#/	.	2.ryy	.	.
8r	16a\LL	.	.	.	.
.	16a\JJ	.	.	.	.
!	!LO:TX:b:i:t=rall.	!	!	!	!
4r	4dd\	.	.	.	.
8r	16a\LL	.	.	.	.
.	16a\JJ	.	.	.	.
=16	=16	=16	=16	=16	=16
2.r	8dd^^\L	.	2.ryy	.	.
.	8a^^\	.	.	.	.
.	8dd^^\J	.	.	.	.
.	8a^^\L	.	.	.	.
.	8dd^^\	.	.	.	.
.	8a^^\J	.	.	.	.
=17	=17	=17	=17	=17	=17
*tremolo	*	*	*	*	*
(16DD/LL	[2.dd [>2.a [2.f#/	ff	2.ryy	.	.
16D/	.	.	.	.	.
16DD/	.	.	.	.	.
16D/	.	.	.	.	.
16DD/	.	.	.	.	.
16D/	.	.	.	.	.
16DD/	.	.	.	.	.
16D/	.	.	.	.	.
16DD/	.	.	.	.	.
16D/	.	.	.	.	.
16DD/	.	.	.	.	.
16D/JJ)	.	.	.	.	.
*Xtremolo	*	*	*	*	*
=18	=18	=18	=18	=18	=18
8DD/	8dd] 8a] 8f#/]	.	2.ryy	.	.
8r	8r	.	.	.	.
8r	8r	.	.	.	.
4r;	4r;	.	.	.	.
8r	8r	.	.	.	.
!!LO:LB:g=original
=19|!	=19|!	=19|!	=19|!	=19|!	=19|!
!	!LO:TX:a:B:t=Allegro vivace.	!	!	!	!
[[32qqGG/LLL	[[32qqG/LLL	mf	.	.	.
[[32qqBB/	[[32qqB/	.	.	.	.
!LO:S:s=1:note:problem=note-level slur	!	!LO:S:s=1:note:problem=note-level slur	!	!	!
(<32qqC#X/JJJ	(32qqc#X/JJJ	.	.	.	.
!LO:S:s=1:note:problem=note-level slur	!LO:S:s=1:note:problem=note-level slur	!	!	!	!
8D) 8BB]] 8GG]]`>/	8d) 8B]] 8G]]`>/	.	2.r	.	.
8r	8r	.	.	.	.
8r	8r	.	.	.	.
[[32qqGG/LLL	[[32qqG/LLL	.	.	.	.
[[32qqBB/	[[32qqB/	.	.	.	.
(<32qqC#/JJJ	(32qqc#/JJJ	.	.	.	.
8D) 8BB]] 8GG]]`>/	8d) 8B]] 8G]]`>/	.	.	.	.
8r	8r	.	.	.	.
8r	8r	.	.	.	.
=20	=20	=20	=20	=20	=20
[[32qqGG/LLL	[[32qqG/LLL	.	.	.	.
[[32qqBB/	[[32qqB/	.	.	.	.
32qqC#X/JJJ	32qqc#X/JJJ	.	.	.	.
8D 8BB]] 8GG]]`>/	8d 8B]] 8G]]`>/	.	2.r	.	.
8r	8r	.	.	.	.
8r	8r	.	.	.	.
[[32qqGG/LLL	[[32qqG/LLL	.	.	.	.
[[32qqBB/	[[32qqB/	.	.	.	.
32qqC#/JJJ	32qqc#/JJJ	.	.	.	.
8D 8BB]] 8GG]]`>/	8d 8B]] 8G]]`>/	.	.	.	.
8r	8r	.	.	.	.
8r	8r	.	.	.	.
=21	=21	=21	=21	=21	=21
[[32qqGG/LLL	[[32qqG/LLL	.	.	.	.
[[32qqBB/	[[32qqB/	.	.	.	.
32qqC#X/JJJ	32qqc#X/JJJ	.	.	.	.
8D 8BB]] 8GG]]`>/	8d 8B]] 8G]]`>/	.	2.r	.	.
8r	8r	.	.	.	.
8r	8r	.	.	.	.
[[32qqGG/LLL	[[32qqG/LLL	.	.	.	.
[[32qqBB/	[[32qqB/	.	.	.	.
32qqC#/JJJ	32qqc#/JJJ	.	.	.	.
8D 8BB]] 8GG]]`>/	8d 8B]] 8G]]`>/	.	.	.	.
8r	8r	.	.	.	.
8r	8r	.	.	.	.
=22	=22	=22	=22	=22	=22
[[32qqGG/LLL	[[32qqG/LLL	.	.	.	.
[[32qqBB/	[[32qqB/	.	.	.	.
32qqC#X/JJJ	32qqc#X/JJJ	.	.	.	.
8D 8BB]] 8GG]]`>/	8d 8B]] 8G]]`>/	.	2.r	.	.
8r	8r	.	.	.	.
8r	8r	.	.	.	.
[[32qqGG/LLL	[[32qqG/LLL	.	.	.	.
[[32qqBB/	[[32qqB/	.	.	.	.
32qqC#/JJJ	32qqc#/JJJ	.	.	.	.
8D 8BB]] 8GG]]`>/	8d 8B]] 8G]]`>/	.	.	.	.
8r	8r	.	.	.	.
8r	8r	.	.	.	.
=23	=23	=23	=23	=23	=23
[[32qqGG/LLL	[[32qqG/LLL	.	.	.	.
[[32qqBB/	[[32qqB/	.	.	.	.
32qqC#X/JJJ	32qqc#X/JJJ	.	.	.	.
!	!	!	!	!	!LO:DY:rj
8D 8BB]] 8GG]]`>/	8d 8B]] 8G]]`>/	.	8dd 8bv/	.	f
!	!	!	!LO:TX:t=P:global:problem=symbol smyczka w dół odwrotnie	!	!
8r	8r	.	8Gu`<\	.	.
!	!	!	!	!	!LO:HP:a
8r	8r	.	(8cc#XL 8a#X/	.	<
[[32qqGG/LLL	[[32qqG/LLL	.	.	.	.
[[32qqBB/	[[32qqB/	.	.	.	.
32qqC#/JJJ	32qqc#/JJJ	.	.	.	.
8D 8BB]] 8GG]]`>/	8d 8B]] 8G]]`>/	.	16ddJk 16b'/)	.	[
.	.	.	16r	.	.
8r	8r	.	8G\	.	.
!	!	!	!LO:TX:t=P:problem=cross-measure beam 	!	!LO:HP:a
8r	8r	.	(8cc# 8a#/	.	<
!!LO:LB:g=original
=24	=24	=24	=24	=24	=24
[[32qqGG/LLL	[[32qqG/LLL	.	.	.	.
[[32qqBB/	[[32qqB/	.	.	.	.
32qqC#X/JJJ	32qqc#X/JJJ	.	.	.	.
8D 8BB]] 8GG]]`>/	8d 8B]] 8G]]`>/	.	16dd 16b'/)	.	[
.	.	.	16r	.	.
8r	8r	.	8G\	.	.
!	!	!	!	!	!LO:HP:a
8r	8r	.	(8cc#XL 8a#X/	.	<
[[32qqGG/LLL	[[32qqG/LLL	.	.	.	.
[[32qqBB/	[[32qqB/	.	.	.	.
32qqC#/JJJ	32qqc#/JJJ	.	.	.	.
8D 8BB]] 8GG]]`>/	8d 8B]] 8G]]`>/	.	16ddJk 16b'/)	.	[
.	.	.	16r	.	.
8r	8r	.	8G\	.	.
!	!	!	!LO:TX:t=P:problem=cross-measure beam 	!	!LO:HP:a
8r	8r	.	(8ggL 8b/	.	<
=25	=25	=25	=25	=25	=25
[[32qqGG/LLL	[[32qqA/LLL	.	.	.	.
32qqCn/	[[32qqcn/	.	.	.	.
32qqC#X/JJJ	[32qqd/JJJ	.	.	.	.
8D 8GG]]`>/	8f# 8d] 8c]] 8A]]`>/	.	16aanJk 16ccn')/	.	[
.	.	.	16r	.	.
8r	8r	.	8G\	.	.
!	!	!	!	!	!LO:HP:a
8r	8r	.	(8gg#XL 8b/	.	<
[[32qqGG/LLL	[[32qqA/LLL	.	.	.	.
32qqCn/	[[32qqc/	.	.	.	.
32qqC#X/JJJ	[32qqd/JJJ	.	.	.	.
8D 8GG]]`>/	8f# 8d] 8c]] 8A]]`>/	.	16aaJk 16cc'/)	.	[
.	.	.	16r	.	.
8r	8r	.	8Gn\	.	.
!	!	!	!LO:TX:t=P:problem=cross-measure beam 	!	!LO:HP:a
8r	8r	.	(8aa#XL 8cc#X/	.	<
=26	=26	=26	=26	=26	=26
[[32qqGG/LLL	[[32qqG/LLL	.	.	.	.
[[32qqBB/	[[32qqB/	.	.	.	.
32qqC#X/JJJ	[32qqd/JJJ	.	.	.	.
8D 8BB]] 8GG]]`>/	8g 8d] 8B]] 8G]]`>/	.	16bbJk 16dd'/)	.	[
.	.	.	16r	.	.
8r	8r	.	8G\	.	.
!	!	!	!	!	!LO:HP:a
8r	8r	.	(8aanL 8ccn/	.	<
[[32qqGG/LLL	[[32qqG/LLL	.	.	.	.
[[32qqBB/	[[32qqB/	.	.	.	.
32qqC#/JJJ	[32qqd/JJJ	.	.	.	.
8D 8BB]] 8GG]]`>/	8g 8d] 8B]] 8G]]`>/	.	16ggJk 16b'/)	.	[
.	.	.	16r	.	.
8r	8r	.	8G\	.	.
!	!	!	!LO:TX:t=P:problem=cross-measure beam	!	!LO:HP:a
8r	8r	.	(8eeL 8cc/	.	<
=27	=27	=27	=27	=27	=27
[[32qqGG/LLL	[[32qqG/LLL	.	.	.	.
[[32qqBB/	[[32qqB/	.	.	.	.
32qqC#X/JJJ	32qqc#X/JJJ	.	.	.	.
8D 8BB]] 8GG]]`>/	8d 8B]] 8G]]`>/	.	16ddJk 16b'/)	.	[
.	.	.	16r	.	.
8r	8r	.	8G\	.	.
!	!	!	!	!	!LO:HP:a
8r	8r	.	(8cc#XL 8a#X/	.	<
[[32qqGG/LLL	[[32qqG/LLL	.	.	.	.
[[32qqBB/	[[32qqB/	.	.	.	.
32qqC#/JJJ	32qqc#/JJJ	.	.	.	.
8D 8BB]] 8GG]]`>/	8d 8B]] 8G]]`>/	.	16ddJk 16b'/)	.	[
.	.	.	16r	.	.
8r	8r	.	8G\	.	.
!	!	!	!LO:TX:t=P:problem=cross-measure beam	!	!LO:HP:a
8r	8r	.	(8cc#L 8a#/	.	<
=28	=28	=28	=28	=28	=28
[[32qqGG/LLL	[[32qqG/LLL	.	.	.	.
[[32qqBB/	[[32qqB/	.	.	.	.
32qqC#X/JJJ	32qqc#X/JJJ	.	.	.	.
8D 8BB]] 8GG]]`>/	8d 8B]] 8G]]`>/	.	16ddJk 16b'/)	.	[
.	.	.	16r	.	.
8r	8r	.	8G\	.	.
!	!	!	!	!	!LO:HP:a
8r	8r	.	(8cc#XL 8a#X/	.	<
[[32qqGG/LLL	[[32qqG/LLL	.	.	.	.
[[32qqBB/	[[32qqB/	.	.	.	.
32qqC#/JJJ	32qqc#/JJJ	.	.	.	.
8D 8BB]] 8GG]]`>/	8d 8B]] 8G]]`>/	.	16ddJk 16b'/)	.	[
.	.	.	16r	.	.
8r	8r	.	8G\	.	.
!	!	!	!LO:TX:t=P:problem=cross-measure beam	!	!LO:HP:a
8r	8r	.	(8ggL 8b/	.	<
!!LO:PB:g=original
=29	=29	=29	=29	=29	=29
[[32qqGG/LLL	[[32qqA/LLL	.	.	.	.
32qqCn/	[[32qqcn/	.	.	.	.
32qqC#X/JJJ	32qqd/JJJ	.	.	.	.
8D 8GG]]/	8f# 8d 8c]] 8A]]/	.	16aanJk 16ccn'/)	.	[
.	.	.	16r	.	.
8r	8r	.	8G\	.	.
!	!	!	!	!	!LO:HP:a
8r	8r	.	(8gg#XL 8b/	.	<
[[32qqGG/LLL	[[32qqA/LLL	.	.	.	.
32qqCn/	[[32qqc/	.	.	.	.
32qqC#X/JJJ	32qqd/JJJ	.	.	.	.
8D 8GG]]/	8f# 8d 8c]] 8A]]/	.	16aaJk 16cc'/)	.	[
.	.	.	16r	.	.
8r	8r	.	8Gn\	.	.
!	!	!	!LO:TX:t=P:problem=cross-measure beam	!	!LO:HP:a
8r	8r	.	(8bbL 8dd/	.	<
=30	=30	=30	=30	=30	=30
[[32qqGG/LLL	[[32qqG/LLL	.	.	.	.
[[32qqBB/	[[32qqB/	.	.	.	.
32qqC#X/JJJ	[32qqd/JJJ	.	.	.	.
8D 8BB]] 8GG]]/	8g 8d] 8B]] 8G]]/	.	16ggnJk 16b'/)	.	[
.	.	.	16r	.	.
8r	8r	.	8G\	.	.
8r	8r	.	(8dddL 8dd/	.	.
8GG 8GGG/`	8gg 8dd 8b 8g\`	sf	16gggJk 16gg'/)	.	sf
.	.	.	16r	.	[
8r	8r	.	8r	.	.
8r	8r	.	8r	.	.
=31	=31	=31	=31	=31	=31
[[32qqGG/LLL	[[32qqG/LLL	.	.	.	.
[[32qqBB/	[[32qqB/	.	.	.	.
32qqC#X/JJJ	32qqc#X/JJJ	.	.	.	.
8D 8BB]] 8GG]]/	8d 8B]] 8G]]/	.	8dd 8bv/	.	.
8r	8r	.	8Gu\	.	.
!	!	!	!	!	!LO:HP:a
8r	8r	.	(8cc#XL 8a#X/	.	<
[[32qqGG/LLL	[[32qqG/LLL	.	.	.	.
[[32qqBB/	[[32qqB/	.	.	.	.
32qqC#/JJJ	32qqc#/JJJ	.	.	.	.
8D 8BB]] 8GG]]/	8d 8B]] 8G]]/	.	16ddJk 16b'/)	.	[
.	.	.	16r	.	.
8r	8r	.	8G\	.	.
!	!	!	!LO:TX:t=P:problem=cross-measure beam	!	!LO:HP:a
8r	8r	.	(8cc#L 8a#/	.	<
=32	=32	=32	=32	=32	=32
[[32qqGG/LLL	[[32qqG/LLL	.	.	.	.
[[32qqBB/	[[32qqB/	.	.	.	.
32qqC#X/JJJ	32qqc#X/JJJ	.	.	.	.
8D 8BB]] 8GG]]/	8d 8B]] 8G]]/	.	16ddJk 16b'/)	.	[
.	.	.	16r	.	.
8r	8r	.	8G\	.	.
!	!	!	!	!	!LO:HP:a
8r	8r	.	(8cc#XL 8a#X/	.	<
[[32qqGG/LLL	[[32qqG/LLL	.	.	.	.
[[32qqBB/	[[32qqB/	.	.	.	.
32qqC#/JJJ	32qqc#/JJJ	.	.	.	.
8D 8BB]] 8GG]]/	8d 8B]] 8G]]/	.	16ddJk 16b'/)	.	[
.	.	.	16r	.	.
8r	8r	.	8G\	.	.
!	!	!	!LO:TX:t=P:problem=cross-measure beam	!	!LO:HP:a
8r	8r	.	(8ggL 8b/	.	<
=33	=33	=33	=33	=33	=33
[[32qqGG/LLL	[32qqA/LLL	.	.	.	.
32qqCn/	[32qqcn/	.	.	.	.
32qqC#X/JJJ	[32qqd/JJJ	.	.	.	.
8D 8GG]]/	8f# 8d] 8c]] 8A]]/	.	16aanJk 16ccn'/)	.	[
.	.	.	16r	.	.
8r	8r	.	8G\	.	.
!	!	!	!	!	!LO:HP:a
8r	8r	.	(8gg#XL 8b/	.	<
[[32qqGG/LLL	[32qqA/LLL	.	.	.	.
32qqCn/	[32qqc/	.	.	.	.
32qqC#X/JJJ	[32qqd/JJJ	.	.	.	.
8D 8GG]]/	8f# 8d] 8c]] 8A]]/	.	16aaJk 16cc'/)	.	[
.	.	.	16r	.	.
8r	8r	.	8G\	.	.
!	!	!	!LO:TX:t=P:problem=cross-measure beam	!	!LO:HP:a
8r	8r	.	(8aa#XL 8cc#X/	.	<
!!LO:LB:g=original
=34	=34	=34	=34	=34	=34
[[32qqGG/LLL	[[32qqG/LLL	.	.	.	.
[[32qqBB/	[[32qqB/	.	.	.	.
32qqC#X/JJJ	[32qqd/JJJ	.	.	.	.
8D 8BB]] 8GG]]/	8g 8d] 8B]] 8G]]/	.	16bbJk 16dd'/)	.	[
.	.	.	16r	.	.
8r	8r	.	8G\	.	.
!	!	!	!	!	!LO:HP:a
8r	8r	.	(8aanL 8ccn/	.	<
[[32qqGG/LLL	[[32qqG/LLL	.	.	.	.
[[32qqBB/	[[32qqB/	.	.	.	.
32qqC#/JJJ	[32qqd/JJJ	.	.	.	.
8D 8BB]] 8GG]]/	8g 8d] 8B]] 8G]]/	.	16ggJk 16b'/)	.	[
.	.	.	16r	.	.
8r	8r	.	8G\	.	.
!	!	!	!LO:TX:t=P:problem=cross-measure beam	!	!LO:HP:a
8r	8r	.	(8eeL 8cc/	.	<
=35	=35	=35	=35	=35	=35
[[32qqGG/LLL	[[32qqG/LLL	.	.	.	.
[[32qqBB/	[[32qqB/	.	.	.	.
32qqC#X/JJJ	32qqc#X/JJJ	.	.	.	.
8D 8BB]] 8GG]]/	8d 8B]] 8G]]/	.	16eeJk 16b'/)	.	[
.	.	.	16r	.	.
8r	8r	.	8G\	.	.
!	!	!	!	!	!LO:HP:a
8r	8r	.	(8cc#XL 8a#X/	.	<
[[32qqGG/LLL	[[32qqG/LLL	.	.	.	.
[[32qqBB/	[[32qqB/	.	.	.	.
32qqC#/JJJ	32qqc#/JJJ	.	.	.	.
8D 8BB]] 8GG]]/	8d 8B]] 8G]]/	.	16ddJk 16b'/)	.	[
.	.	.	16r	.	.
8r	8r	.	8G\	.	.
!	!	!	!LO:TX:t=P:problem=cross-measure beam	!	!LO:HP:a
8r	8r	.	(8cc#L 8a#/	.	<
=36	=36	=36	=36	=36	=36
[[32qqGG/LLL	[[32qqG/LLL	.	.	.	.
[[32qqBB/	[[32qqB/	.	.	.	.
32qqC#X/JJJ	32qqc#X/JJJ	.	.	.	.
8D 8BB]] 8GG]]/	8d 8B]] 8G]]/	.	16ddJk 16b'/)	.	[
.	.	.	16r	.	.
8r	8r	.	8G\	.	.
!	!	!	!	!	!LO:HP:a
8r	8r	.	(8cc#XL 8a#X/	.	<
[[32qqGG/LLL	[[32qqG/LLL	.	.	.	.
[[32qqBB/	[[32qqB/	.	.	.	.
32qqC#/JJJ	32qqc#/JJJ	.	.	.	.
8D 8BB]] 8GG]]/	8d 8B]] 8G]]/	.	16ddJk 16b'/)	.	[
.	.	.	16r	.	.
8r	8r	.	8G\	.	.
!	!	!	!LO:TX:t=P:problem=cross-measure beam	!	!LO:HP:a
8r	8r	.	(8ggL 8b/	.	<
=37	=37	=37	=37	=37	=37
[[32qqGG/LLL	[[32qqA/LLL	.	.	.	.
32qqCn/	[[32qqcn/	.	.	.	.
32qqC#X/JJJ	[32qqd/JJJ	.	.	.	.
8D 8GG]]/	8f# 8d] 8c]] 8A]]/	.	16aanJk 16ccn'/)	.	[
.	.	.	16r	.	.
8r	8r	.	8G\	.	.
!	!	!	!	!	!LO:HP:a
8r	8r	.	(8gg#XL 8b/	.	<
[[32qqGG/LLL	[p32qqA/LLL	.	.	.	.
32qqCn/	[[32qqc/	.	.	.	.
32qqC#/JJJ	[32qqd/JJJ	.	.	.	.
8D 8GG]]/	8f# 8d] 8c]] 8A]]/	.	16aaJk 16cc'/)	.	[
.	.	.	16r	.	.
8r	8r	.	8Gn\	.	.
!	!	!	!LO:TX:t=P:problem=cross-measure beam	!	!LO:HP:a
8r	8r	.	(8bbL 8dd/	.	<
=38	=38	=38	=38	=38	=38
[[32qqGG/LLL	[[32qqG/LLL	.	.	.	.
[[32qqBB/	[[32qqB/	.	.	.	.
32qqC#X/JJJ	32qqd/JJJ	.	.	.	.
8D 8BB]] 8GG]]/	8g 8d 8B]] 8G]]/	.	16ggnJk 16b'/)	.	[
.	.	.	16r	.	.
8r	8r	.	8G\	.	.
8r	8r	.	(8dddL 8dd/	.	.
8GG 8GGG/`	8gg 8dd 8b 8g\`	sf	16gggJk 16gg/)	.	sf
.	.	.	16r	.	.
8r	8r	.	8r	.	.
8r	8r	.	8r	.	.
!!LO:LB:g=original
=39	=39	=39	=39	=39	=39
!	!LO:TX:a:i:t=staccato.	!LO:DY:rj	!	!	!
8E\L	8gL 8e 8B/	p <	8gg 8b/	.	.
8r	8r	.	8f# 8B\	.	.
!	!	!	!	!	!LO:HP:a
8BB\J	8f#J 8d#X 8B^/	.	(8bbL 8dd#X/	.	<
8E\L	8gL 8e 8B/	.	16ggJk 16b'/)	.	[
.	.	.	16r	.	.
8r	8r	.	8f# 8B\	.	.
!	!	!	!LO:TX:t=P:problem=cross-measure beam	!	!LO:HP:a
8BB\J	8f#J 8d# 8B^/	.	(8bbL 8dd#/	.	<
=40	=40	=40	=40	=40	=40
8E\L	8gL 8e 8B/	.	16ggJk 16b'/)	.	.
.	.	.	16r	.	[
8r	8r	.	8g 8c\	.	.
!	!	!	!	!	!LO:HP:a
8AA\J	8eJ 8c#X 8A^/	.	(8aaL 8cc#X/	.	<
8D\L	8f#L 8d 8A/	.	16ff#Jk 16a/)	.	[
.	.	.	16r	.	.
8r	8r	.	8e 8A\	.	.
!	!	!	!LO:TX:t=P:problem=cross-measure beam	!	!LO:HP:a
8AA\J	8eJ 8c# 8A^/	.	(8aaL 8cc#/	.	<
=41	=41	=41	=41	=41	=41
8D\L	8f#L 8d 8A/	.	16ff#Jk 16a/)	.	[
.	.	.	16r	.	.
8r	8r	.	8d 8G\	.	.
8GG\J	8dJ 8B 8G^/	.	(8ggL 8b/	.	.
8Cn\L	8eL 8cn 8G/	.	16eeJk 16g/)	.	.
.	.	.	16r	.	.
8r	8r	.	8c 8G\	.	.
!	!	!	!LO:TX:t=P:problem=cross-measure beam	!	!
8GG\J	8dJ 8B 8G^/	.	(8ggL 8b/	.	.
=42	=42	=42	=42	=42	=42
8r	4e 4c 4G^>/	f	16eeJk 16g/)	.	.
.	.	.	16r	.	.
(8C/L	.	.	8g 8c\	.	.
8CC^/J)	8r	.	(8eeL 8cc/	.	.
8r	4e 4B 4G^>/	.	8eeJ 8b/)	.	.
(8C/L	.	.	8g 8c\	.	.
!	!	!	!LO:TX:t=P:problem=cross-measure beam	!	!
8CC^/J)	8r	.	(8eeL 8b/	.	.
=43	=43	=43	=43	=43	=43
8r	4e 4B-X 4G^>/	.	8eeJ 8b-X/)	.	.
(8C/L	.	.	8g 8c\	.	.
8CC^/J)	8r	.	(8eeL 8b-/	.	.
8r	4e 4Bn 4G^>/	.	8eeJ 8bn/)	.	.
(8C/L	.	.	8g 8c\	.	.
!	!	!	!LO:TX:t=P:problem=cross-measure beam	!	!
8CC^/J)	8r	.	(8eeL 8b/	.	.
=44	=44	=44	=44	=44	=44
8r	4e 4c 4G^>/	.	8eeJ 8cc/)	.	.
(8C/L	.	.	8g 8c\	.	.
8CC^/J)	8r	.	(8eeL 8cc/	.	.
8r	4e 4B 4G^>/	.	8eeJ 8b/)	.	.
(8C/L	.	.	8g 8c\	.	.
!	!	!	!LO:TX:t=P:problem=cross-measure beam	!	!
8CC^/J)	8r	.	(8eeL 8b/	.	.
!!LO:LB:g=original
=45	=45	=45	=45	=45	=45
8r	4e 4B-X 4G^>/	.	8eeJ 8b-X/)	.	.
(8C/L	.	.	8g 8c\	.	.
8CC^/J)	8r	.	(8bb-XL 8b-/	.	.
!	!	!LO:DY:rj	!	!	!
8CL 8CC/	8b-XL 8e 8c^/	f	8eeeJ 8ee/)	.	.
8C 8CC/	8b- 8e 8c^/	.	8g 8c\	.	.
!	!	!	!LO:TX:t=P:problem=cross-measure beam	!	!
8CJ 8CC/	8b-J 8e 8c^/	.	(8bb-L 8b-/	.	.
=46	=46	=46	=46	=46	=46
8r	8r	.	8bbnJ 8bn/)	.	.
8r	8r	.	8f# 8B\	.	.
8BB 8FF# 8DD#X 8BBB/	8bn 8f# 8d#X 8Bn/	sf	(8ff#L 8b/	.	.
8r	8r	.	8bbJ 8dd#X/)	.	.
8r	8r	.	8f# 8B\	.	.
!	!	!	!LO:TX:t=P:problem=cross-measure beam	!	!
8BB 8FF# 8DD# 8BBB/	8b 8f# 8d# 8B/	sf	(8ff#L 8b/	.	.
=47	=47	=47	=47	=47	=47
8r	8r	.	8bbJ 8dd#X/)	.	.
8r	8r	.	8f# 8B\	.	.
8BB 8FF# 8DD#X 8BBB/	8b 8f# 8d#X 8B/	sf	(8ff#L 8b/	.	.
8r	8r	.	8bbJ 8dd#/)	.	.
8r	8r	.	8f# 8B\	.	.
!	!	!	!LO:TX:t=P:problem=cross-measure beam	!	!
8BB 8FF# 8DD# 8BBB/	8b 8f# 8d# 8B/	sf	(8eeL 8a/	.	.
=48	=48	=48	=48	=48	=48
*	*	*	*^	*	*
8r	8r	.	8bbJ 8dd#X/)	8ryy	.	.
8BB 8FF# 8DD#X 8BBB/	8b 8f# 8d#X 8B/	sf	(<8f#/L	8B\	.	.
8r	8r	.	8bbJ 8dd#/)	2ryy	.	sf
8BB 8FF# 8DD# 8BBB/	8b 8f# 8d# 8B/	sf	(8f#L 8B/	.	.	.
8r	8r	.	8bbJ 8dd#/)	.	.	sf
!	!	!	!LO:TX:t=P:problem=cross-measure beam	!	!	!
8BB 8FF# 8DD# 8BBB/	8b 8f# 8d# 8B/	sf	(8f#L 8B/	.	.	.
*	*	*	*v	*v	*	*
=49	=49	=49	=49	=49	=49
8r	8r	.	8bbJ 8dd#X/)	.	sf
8BB 8FF# 8DD#X 8BBB/	8b 8f# 8d#X 8B/	sf	(8f#L 8B/	.	.
8r	8r	.	8bbJ 8dd#/)	.	sf
8BB 8FF# 8DD# 8BBB/	8b 8f# 8d# 8B/	sff	(8f#L 8B/	.	.
8r	8r	.	8bbJ 8dd#/)	.	sf
!	!	!	!LO:TX:t=P:problem=cross-measure beam	!	!LO:HP:a
8r	8r	.	(8f#L 8B/	.	<
!!LO:PB:g=original
=50	=50	=50	=50	=50	=50
[[32qqGGG/LLL	[[32qqG/LLL	f	.	.	.
32qqCC#X/	[[32qqB/	.	.	.	.
32qqDD/JJJ	32qqc#X/JJJ	.	.	.	.
8GG 8DD 8GGG]]`>/	8d 8B]] 8G]]`>/	sf	16ddJk 16b/)	.	[ ff
.	.	.	16r	.	.
8r	8r	.	8d 8G\	.	.
!	!	!	!	!	!LO:HP:a
8r	8r	.	(8cc#XL 8a#X/	.	<
[[32qqGGG/LLL	[[32qqG/LLL	.	.	.	.
32qqCC#/	[[32qqB/	.	.	.	.
32qqDD/JJJ	32qqc#/JJJ	.	.	.	.
8GG 8DD 8GGG]]`>/	8d 8B]] 8G]]`>/	sf	16ddJk 16b/)	.	[
.	.	.	16r	.	.
8r	8r	.	8d 8G\	.	.
!	!	!	!LO:TX:t=P:problem=cross-measure beam	!	!
8r	8r	.	(8cc#L 8a#/	.	.
=51	=51	=51	=51	=51	=51
[[32qqGGG/LLL	[[32qqG/LLL	.	.	.	.
32qqCC#X/	[[32qqB/	.	.	.	.
32qqDD/JJJ	32qqc#X/JJJ	.	.	.	.
8GG 8DD 8GGG]]`>/	8d 8B]] 8G]]`>/	sf	16ddJk 16b/)	.	.
.	.	.	16r	.	.
8r	8r	.	8d 8G\	.	.
8r	8r	.	(8cc#XL 8a#X/	.	.
[[32qqGGG/LLL	[[32qqG/LLL	.	.	.	.
32qqCC#/	[[32qqB/	.	.	.	.
32qqDD/JJJ	32qqc#/JJJ	.	.	.	.
8GG 8DD 8GGG]]`>/	8d 8B]] 8G]]`>/	sf	16ddJk 16b/)	.	.
.	.	.	16r	.	.
8r	8r	.	8d 8G\	.	.
!	!	!	!LO:TX:t=P:problem=cross-measure beam	!	!
8r	8r	.	(8ggL 8b/	.	.
=52	=52	=52	=52	=52	=52
[[32qqGGG/LLL	[[32qqA/LLL	.	.	.	.
32qqCC#X/	[[32qqcn/	.	.	.	.
32qqDD/JJJ	[32qqd/JJJ	.	.	.	.
8GG 8DD 8GGG]]`>/	8f# 8d] 8c]] 8A]]`>/	sf	16aanJk 16ccn/)	.	.
.	.	.	16r	.	.
8r	8r	.	8d 8G\	.	.
8r	8r	.	(8gg#XL 8b/	.	.
[[32qqGGG/LLL	[[32qqA/LLL	.	.	.	.
32qqCC#/	[[32qqc/	.	.	.	.
32qqDD/JJJ	[32qqd/JJJ	.	.	.	.
8GG 8DD 8GGG]]`>/	8f# 8d] 8c]] 8A]]`>/	sf	16aaJk 16cc/)	.	.
.	.	.	16r	.	.
8r	8r	.	8d 8Gn\	.	.
!	!	!	!LO:TX:t=P:problem=cross-measure beam	!	!
8r	8r	.	(8aa#XL 8cc#X/	.	.
=53	=53	=53	=53	=53	=53
[[32qqGGG/LLL	[[32qqG/LLL	.	.	.	.
32qqCC#X/	[[32qqB/	.	.	.	.
32qqDD/JJJ	[32qqd/JJJ	.	.	.	.
8GG 8DD 8GGG]]/	8g 8d] 8B]] 8G]]/	sf	16bbJk 16dd/)	.	.
.	.	.	16r	.	.
8r	8r	.	8d 8G\	.	.
8r	8r	.	(8aanL 8ccn/	.	.
[[32qqGGG/LLL	[[32qqG/LLL	.	.	.	.
32qqCC#/	[[32qqB/	.	.	.	.
32qqDD/JJJ	[32qqd/JJJ	.	.	.	.
8GG 8DD 8GGG]]/	8g 8d] 8B]] 8G]]/	sf	16ggnJk 16b/)	.	.
.	.	.	16r	.	.
8r	8r	.	8d 8G\	.	.
!	!	!	!LO:TX:t=P:problem=cross-measure beam	!	!
8r	8r	.	(8eeL 8cc/	.	.
=54	=54	=54	=54	=54	=54
[[32qqGGG/LLL	[[32qqG/LLL	.	.	.	.
32qqCC#X/	[[32qqB/	.	.	.	.
32qqDD/JJJ	32qqc#X/JJJ	.	.	.	.
8GG 8DD 8GGG]]/	8d 8B]] 8G]]/	sf	16ddJk 16b/)	.	.
.	.	.	16r	.	.
8r	8r	.	8d 8G\	.	.
8r	8r	.	(8cc#XL 8a#X/	.	.
[[32qqGGG/LLL	[[32qqG/LLL	.	.	.	.
32qqCC#/	[[32qqB/	.	.	.	.
32qqDD/JJJ	32qqc#/JJJ	.	.	.	.
8GG 8DD 8GGG]]/	8d 8B]] 8G]]/	sf	16ddJk 16b/)	.	.
.	.	.	16r	.	.
8r	8r	.	8d 8G\	.	.
!	!	!	!LO:TX:t=P:problem=cross-measure beam	!	!
8r	8r	.	(8cc#L 8a#/	.	.
!!LO:LB:g=original
=55	=55	=55	=55	=55	=55
[[32qqGGG/LLL	[[32qqG/LLL	.	.	.	.
32qqCC#X/	[[32qqB/	.	.	.	.
32qqDD/JJJ	32qqc#X/JJJ	.	.	.	.
8GG 8DD 8GGG]]/	8d 8B]] 8G]]/	sf	16ddJk 16b/)	.	.
.	.	.	16r	.	.
8r	8r	.	8d 8G\	.	.
8r	8r	.	(8cc#XL 8a#X/	.	.
[[32qqGGG/LLL	[[32qqG/LLL	.	.	.	.
32qqCC#/	[[32qqB/	.	.	.	.
32qqDD/JJJ	32qqc#/JJJ	.	.	.	.
8GG 8DD 8GGG]]/	8d 8B]] 8G]]/	sf	16ddJk 16b/)	.	.
.	.	.	16r	.	.
8r	8r	.	8d 8G\	.	.
!	!	!	!LO:TX:t=P:problem=cross-measure beam	!	!LO:DY:a
8r	8r	.	(8ggL 8b/	.	.
=56	=56	=56	=56	=56	=56
[[32qqGGG/LLL	[[32qqA/LLL	.	.	.	.
32qqCC#X/	[[32qqcn/	.	.	.	.
32qqDD/JJJ	[32qqd/JJJ	.	.	.	.
8GG 8DD 8GGG]]/	8f# 8d] 8c]] 8A]]/	sf	16aanJk 16ccn/)	.	.
.	.	.	16r	.	.
8r	8r	.	8d 8G\	.	.
8r	8r	.	(8gg#XL 8b/	.	.
[[32qqGGG/LLL	[[32qqA/LLL	.	.	.	.
32qqCC#/	[[32qqc/	.	.	.	.
32qqDD/JJJ	[32qqd/JJJ	.	.	.	.
8GG 8DD 8GGG]]/	8f# 8d] 8c]] 8A]]/	sf	16aaJk 16cc/)	.	.
.	.	.	16r	.	.
8r	8r	.	8d 8Gn\	.	.
!	!	!	!LO:TX:t=P:problem=cross-measure beam	!	!LO:DY:a
8r	8r	.	(8bbL 8dd/	.	.
=57	=57	=57	=57	=57	=57
[[32qqGGG/LLL	[[32qqG/LLL	.	.	.	.
32qqCC#X/	[[32qqB/	.	.	.	.
32qqDD/JJJ	[32qqd/JJJ	.	.	.	.
8GG 8DD 8GGG]]/	8g 8d] 8B]] 8G]]/	sf	16ggnJk 16b/)	.	.
.	.	.	16r	.	.
8r	8r	.	8d 8G\	.	.
!	!	!	!	!	!LO:HP:a
8r	8r	.	(8dddL 8dd/	.	<
8GG 8DD 8GGG/	8gg 8dd 8b 8g\`	sf	16gggJk 16gg/)	.	[ sf
.	.	.	16r	.	.
8r	8r	.	8r	.	.
8r	8r	.	8r	.	.
=58	=58	=58	=58	=58	=58
*	*^	*	*	*	*
[[32qqGGG/LLL	.	.	.	.	.	.
32qqCC#X/	.	.	.	.	.	.
32qqDD/JJJ	.	.	.	.	.	.
!	!	!	!LO:DY:rj	!LO:TX:b:i:t=con fuoco.	!	!LO:DY:rj
8GG 8DD 8GGG]]/	4dd 4d^</	4.b 4.g\	ff	8ddd 8b/	.	ff
8r	.	.	.	8d 8G\	.	.
!	!	!	!	!	!	!LO:HP:a
8r	8ee 8e/	.	.	(8ccc#XL 8a#X/	.	<
[[32qqGGG/LLL	.	.	.	.	.	.
32qqCC#/	.	.	.	.	.	.
32qqDD/JJJ	.	.	.	.	.	.
8GG 8DD 8GGG]]/	4dd 4d^</	4.b 4.g\	.	8dddJ 8b/)	.	[
8r	.	.	.	8d 8G\	.	.
!	!	!	!	!LO:TX:t=P:problem=cross-measure beam	!	!LO:HP:a
8r	8ee 8e/	.	.	(8ccc#L 8a#/	.	<
=59	=59	=59	=59	=59	=59	=59
[[32qqGGG/LLL	.	.	.	.	.	.
32qqCC#X/	.	.	.	.	.	.
32qqDD/JJJ	.	.	.	.	.	.
8GG 8DD 8GGG]]/	4dd 4d^</	4.b 4.g\	.	8dddJ 8b/)	.	[
8r	.	.	.	8d 8G\	.	.
!	!	!	!	!	!	!LO:HP:a
8r	8ee 8e/	.	.	(8ccc#XL 8a#X/	.	<
[[32qqGGG/LLL	.	.	.	.	.	.
32qqCC#/	.	.	.	.	.	.
32qqDD/JJJ	.	.	.	.	.	.
8GG 8DD 8GGG]]/	4dd 4b 4g 4d^</	4ryy	.	8dddJ 8b/)	.	[
8r	.	.	.	8d 8G\	.	.
!	!	!	!	!LO:TX:t=P:problem=cross-measure beam	!	!LO:HP:a
8r	8r	8ryy	.	(8eeeL 8ccn/	.	<
*	*v	*v	*	*	*	*
!!LO:LB:g=original
=60	=60	=60	=60	=60	=60
[[32qqGGG/LLL	.	.	.	.	.
32qqCC#X/	.	.	.	.	.
32qqDD/JJJ	.	.	.	.	.
8GG 8DD 8GGG]]/	4.dd 4.cc 4.a 4.f# 4.d^/	.	8fff#J 8dd/)	.	[
8r	.	.	8d 8G\	.	.
!	!	!	!	!	!LO:HP:a
8r	.	.	(8gggL 8ee/	.	<
[[32qqGGG/LLL	.	.	.	.	.
32qqCC#/	.	.	.	.	.
32qqDD/JJJ	.	.	.	.	.
8GG 8DD 8GGG]]/	4.dd 4.cc 4.a 4.f# 4.d^/	.	8ggg#XJ 8ee#X/)	.	[
8r	.	.	8d 8Gn\	.	.
!	!	!	!LO:TX:t=P:problem=cross-measure beam	!	!LO:HP:a
8r	.	.	(8aaaL 8ff#/	.	<
=61	=61	=61	=61	=61	=61
[[32qqGGG/LLL	.	.	.	.	.
32qqCC#X/	.	.	.	.	.
32qqDD/JJJ	.	.	.	.	.
8GG 8DD 8GGG]]/	4.dd 4.b 4.g 4.d^/	.	8bbbJ 8ggn/)	.	[
8r	.	.	8d 8G\	.	.
!	!	!	!	!	!LO:HP:a
8r	.	.	(8aaaL 8ff#/	.	<
[[32qqGGG/LLL	.	.	.	.	.
32qqCC#/	.	.	.	.	.
32qqDD/JJJ	.	.	.	.	.
8GG 8DD 8GGG]]/	4.dd 4.b 4.g 4.d^/	.	8gggJ 8een/)	.	[
8r	.	.	8d 8G\	.	.
!	!	!	!LO:TX:t=P:problem=cross-measure beam	!	!LO:HP:a
8r	.	.	(8eeeL 8cc/	.	<
=62	=62	=62	=62	=62	=62
*	*^	*	*	*	*
[[32qqGGG/LLL	.	.	.	.	.	.
32qqCC#X/	.	.	.	.	.	.
32qqDD/JJJ	.	.	.	.	.	.
8GG 8DD 8GGG]]/	4dd 4d^</	4.b 4.g\	.	8dddJ 8b/)	.	[
8r	.	.	.	8d 8G\	.	.
!	!	!	!	!	!	!LO:HP:a
8r	8ee 8e/	.	.	(8ccc#XL 8a#X/	.	<
[[32qqGGG/LLL	.	.	.	.	.	.
32qqCC#/	.	.	.	.	.	.
32qqDD/JJJ	.	.	.	.	.	.
8GG 8DD 8GGG]]/	4dd 4d^</	4.b 4.g\	.	8dddJ 8b/)	.	[
8r	.	.	.	8d 8G\	.	.
!	!	!	!	!LO:TX:t=P:problem=cross-measure beam	!	!LO:HP:a
8r	8ee 8e/	.	.	(8ccc#L 8a#/	.	<
=63	=63	=63	=63	=63	=63	=63
[[32qqGGG/LLL	.	.	.	.	.	.
32qqCC#X/	.	.	.	.	.	.
32qqDD/JJJ	.	.	.	.	.	.
8GG 8DD 8GGG]]/	4dd 4d^</	4.b 4.g\	.	8dddJ 8b/)	.	[
8r	.	.	.	8d 8G\	.	.
!	!	!	!	!	!	!LO:HP:a
8r	8ee 8e/	.	.	(8ccc#XL 8a#X/	.	<
[[32qqGGG/LLL	.	.	.	.	.	.
32qqCC#/	.	.	.	.	.	.
32qqDD/JJJ	.	.	.	.	.	.
8GG 8DD 8GGG]]/	4dd 4b 4g 4d^/	4ryy	.	8dddJ 8b/)	.	[
8r	.	.	.	8d 8G\	.	.
!	!	!	!	!LO:TX:t=P:problem=cross-measure beam	!	!LO:HP:a
8r	8r	8ryy	.	(8eeeL 8ccn/	.	<
*	*v	*v	*	*	*	*
=64	=64	=64	=64	=64	=64
[[32qqGGG/LLL	.	.	.	.	.
32qqCC#X/	.	.	.	.	.
32qqDD/JJJ	.	.	.	.	.
8GG 8DD 8GGG]]/	4.dd 4.cc 4.a 4.f# 4.d^/	.	8fff#J 8dd/)	.	[
8r	.	.	8d 8G\	.	.
!	!	!	!	!	!LO:HP:a
8r	.	.	(8gggL 8ee/	.	<
[[32qqGGG/LLL	.	.	.	.	.
32qqCC#/	.	.	.	.	.
32qqDD/JJJ	.	.	.	.	.
8GG 8DD 8GGG]]/	4.dd 4.cc 4.a 4.f# 4.d^/	.	8ggg#XJ 8ee#X/)	.	[
8r	.	.	8d 8G\	.	.
8r	.	.	(8aaaL 8ff#/	.	.
!!LO:LB:g=original
=65	=65	=65	=65	=65	=65
[[32qqGGG/LLL	.	.	.	.	.
32qqCC#X/	.	.	.	.	.
32qqDD/JJJ	.	.	.	.	.
8GG 8DD 8GGG]]/	4.dd 4.b 4.g 4.d^/	.	8bbbJ 8gg/)	.	.
8r	.	.	8d 8G\	.	.
8r	.	.	(8aaL 8cc/	.	.
!	!	!LO:DY:rj	!	!	!
8GG 8DD 8GGG/	8gg 8dd 8b 8g\	sf	8ggJ 8b/)	.	.
!	!	!	!	!	!LO:DY:a
8r	8r	.	8d 8G\	.	sf
8r	8r	.	8r	.	.
=66	=66	=66	=66	=66	=66
2.r	[4.g/	sf	2.r	.	.
.	8g/]	.	.	.	.
.	8r	.	.	.	.
.	16d/LL	.	.	.	.
.	16d/JJ	.	.	.	.
=67	=67	=67	=67	=67	=67
2.r	8g^/L	.	2.r	.	.
.	8d^/	.	.	.	.
.	8g^/J	.	.	.	.
.	8b^/L	.	.	.	.
.	8dd^/	.	.	.	.
.	8b^/J	.	.	.	.
=68	=68	=68	=68	=68	=68
2.r	[4.g/	sf	2.r	.	.
.	8g/]	.	.	.	.
.	8r	.	.	.	.
.	16g/LL	.	.	.	.
.	16g/JJ	.	.	.	.
=69	=69	=69	=69	=69	=69
2.r	4g/	>	2.r	.	.
.	16g/LL	.	.	.	.
.	16g/JJ	.	.	.	.
.	4g/	.	.	.	.
.	16g/LL	.	.	.	.
.	16g/JJ	]	.	.	.
!!LO:LB:g=original
=70||	=70||	=70||	=70||	=70||	=70||
!!!key: C
*k[]	*k[]	*	*k[]	*	*
*M12/8	*M12/8	*	*M12/8	*	*
*	*^	*	*	*	*
!	!LO:TX:a:B:t=Poco piu lento.	!	!	!	!	!
(<4.CC\	1.g|	8e<L 8c< 8G<`/	p	1r	.	.
.	.	8r<	.	.	.	.
.	.	8e<J 8c< 8F#X<`/	.	.	.	.
4.C\)	.	8e<L 8c< 8G<`/	.	.	.	.
.	.	8r<	.	.	.	.
.	.	8e<J 8c< 8F#<`/	.	.	.	.
(<4.CC\	.	8e<L 8c< 8G<`/	.	.	.	.
.	.	8r<	.	.	.	.
.	.	8e<J 8c< 8F#<`/	.	2r	.	.
4.C\)	.	8e<L 8c< 8G<`/	.	.	.	.
.	.	8r<	.	.	.	.
.	.	8e<J 8c< 8F#<`/	.	.	.	.
*	*v	*v	*	*	*	*
=71	=71	=71	=71	=71	=71
!	!	!	!LO:TX:b:i:t=con molto espress.	!	!
(<4.CC\	8eL 8c 8G</`>	.	(4.ggu\	.	<
.	8r	.	.	.	.
.	8eJ 8c 8F#X</`>	.	.	.	.
!	!LO:TX:a:i:t=sempre staccato.	!	!	!	!
4.C\)	8eL 8c 8G</	.	4ccc\	.	.
.	8r	.	.	.	.
.	8eJ 8c 8F#</	.	8ddd\)	.	[
(<4.CC\	8eL 8c 8G</	<	(4.eee\	.	>
.	8r	.	.	.	.
.	8gJ 8c 8B</	[	.	.	.
4.C\)	8gL 8c 8B-X</	>	4ee\	.	.
.	8r	.	.	.	.
.	8fJ 8c 8A</	]	8ff\)	.	]
=72	=72	=72	=72	=72	=72
(<4.CC\	8eL 8c 8G</	.	[4.gg\	.	<
.	8r	.	.	.	.
.	8eJ 8c 8F#X</	.	.	.	.
4.C\)	8eL 8c 8G</	.	4gg\]	.	.
.	8r	.	.	.	.
.	8eJ 8c 8F#</	.	8aa\	.	[
(<4.CC\	8eL 8c 8G</	.	(4.gg\	.	<
.	8r	.	.	.	.
.	8eJ 8c 8F#</	.	.	.	.
4.C\)	8eL 8c 8G</	.	4ccc^\	.	[ >
.	8r	.	.	.	.
.	8eJ 8c 8G#X<^>/	.	8bb\)	.	]
=73	=73	=73	=73	=73	=73
(<4.CC\	8fL 8c 8A</	.	4.aa\	.	.
.	8r	.	.	.	.
.	8fJ 8B 8A</	.	.	.	.
4.C\)	8fL 8c 8A</	.	4ff\	.	.
.	8r	.	.	.	.
.	8fJ 8B 8A</	.	8gg\	.	.
(<4.CC\	8fL 8c 8A</	.	(4.aa\	.	<
.	8r	.	.	.	.
.	8fJ 8B 8A</	.	.	.	.
4.C\)	8fL 8c 8A</	.	4ccc\	.	.
.	8r	.	.	.	.
.	8fJ 8c 8A-X<^>/	.	8ddd\)	.	[
!!LO:PB:g=original
=74	=74	=74	=74	=74	=74
*	*	*	*8va	*	*
(<4.CC\	8eL 8c 8G</	.	([2.eee\	.	.
.	8r	.	.	.	.
.	8eJ 8c 8F#X</	.	.	.	.
4.C\)	8eL 8c 8G</	.	.	.	.
.	8r	.	.	.	.
.	8eJ 8c 8F#</	.	.	.	.
(<4.CC\	8eL 8c 8G</	.	4.eee\_	.	.
.	8r	.	.	.	.
.	8eJ 8c 8F#</	.	.	.	.
4.C\)	8eL 8c 8G</	.	4eee\]	.	.
.	8r	.	.	.	.
.	8e-XJ 8c 8F#<^>/	.	8eee-X\)	.	.
=75	=75	=75	=75	=75	=75
(<4.GGG\	8dL 8B< 8Fn</	.	((4.dddv\	.	.
.	8r	.	.	.	.
.	8dJ 8A#X< 8E</	.	.	.	.
4.GG\)	8dL 8B< 8F</	.	8gg/)|	.	.
.	8r	.	8r	.	.
.	8dJ 8A#< 8E</	.	8gg/)	.	.
(<4.GGG\	8dL 8B< 8F</	.	([4.dddu\	.	.
.	8r	.	.	.	.
.	8dJ 8A#< 8E</	.	.	.	.
4.GG\)	8dL 8B< 8F</	.	4ddd\]	.	.
.	8r	.	.	.	.
.	8eJ 8B< 8F<^>/	.	8eee\)	.	.
=76	=76	=76	=76	=76	=76
(<4.AAA\	8c<L 8A< 8E</	.	((4.cccv\	.	.
.	8r<	.	.	.	.
.	8B<J 8A< 8E</	.	.	.	.
4.AA\)	8c<L 8A< 8E</	.	8ee/)	.	.
.	8r<	.	8r	.	.
.	8B<J 8A< 8E</	.	8ee/)`	.	.
(<4.AAA\	8c<L 8A< 8E</	.	([4.cccu\	.	.
.	8r<	.	.	.	.
.	8B<J 8A< 8E</	.	.	.	.
4.AA\)	8c<L 8A< 8E</	.	4ccc\]	.	.
.	8r<	.	.	.	.
.	8B<J 8A< 8E<^>/	.	8bb\)	.	.
=77	=77	=77	=77	=77	=77
(<4.DD\	8A<L 8G</	.	(4.aav\	.	.
.	8r<	.	.	.	.
.	8G#X<J 8Gn</	.	.	.	.
4.D\)	8A<L 8G#y</	.	4.eee\	.	.
.	8r<	.	.	.	.
.	8G#X<J 8Gn</	.	.	.	.
(<4.DD\	8A<L 8F#X< 8C</	.	4.ddd\)	.	.
.	8r<	.	.	.	.
.	8G#<J 8F#< 8C</	.	.	.	.
4.D\)	8A<L 8F#< 8C</	.	(4ddu/	.	.
.	8r<	.	.	.	.
.	8D<J 8C</	.	8bb/)	.	.
!!LO:LB:g=original
=78	=78	=78	=78	=78	=78
(<4.GGG\	8B<L 8G< 8D</	<	2.ggv/	.	<
.	8r<	.	.	.	.
.	8A#X<J 8G< 8C#X</	.	.	.	.
4.GG\)	8B<L 8G< 8D</	.	.	.	.
.	8r<	.	.	.	.
.	8A#<J 8G< 8C#</	.	.	.	[ f
(<4.GGG\	8B<L 8G< 8D</	.	([2.ggu/	.	.
.	8r<	.	.	.	.
.	8c#X<J 8A#< 8E</	.	.	.	.
4.GG\)	8dL 8B< 8F</	.	.	.	.
.	8r	.	.	.	.
.	8d#XJ 8B< 8F</	.	.	.	.
=79	=79	=79	=79	=79	=79
!	!	!LO:DY:rj	!	!	!
(<4.CC\	8eL 8B-X< 8G</	p	4.gg/]	.	>
.	8r	.	.	.	.
.	8eJ 8B-< 8F#X</	.	.	.	.
4.C\)	8eL 8B-< 8G</	.	4ccc\	.	.
.	8r	.	.	.	.
.	8eJ 8B-< 8F#</	.	8ddd\)	.	]
(<4.CC\	8eL 8B-< 8G</	.	(4.eee\	.	>
.	8r	<	.	.	.
.	8eJ 8dn 8Bn< 8G#X<^>/	.	.	.	.
4.C\)	8eL 8c 8An</	.	4ee/	.	.
.	8r	.	.	.	.
.	8fnJ 8c 8A<^>/	[	8ff/)	.	]
=80	=80	=80	=80	=80	=80
(<4.CC\	8gL 8e 8B-X</	.	([4.gg/	.	.
.	8r	.	.	.	.
.	8gJ 8e 8A</	.	.	.	.
4.C\)	8gL 8e 8B-</	.	4gg/]	.	.
.	8r	.	.	.	.
.	8gJ 8f 8Bn</	.	8aa/)	.	.
(<4.CC\	8gL 8e 8c/	<	(4.gg/	.	.
.	8r	.	.	.	.
.	8gJ 8e 8B/	.	.	.	.
4.C\)	8gL 8e 8c/	.	4ccc\	.	.
.	8r	.	.	.	.
.	8g#XJ 8e 8c^>/	[	8bb\)	.	.
=81	=81	=81	=81	=81	=81
(<4.CC\	8aL 8f 8c/	>	4.aa/	.	.
.	8r	.	.	.	.
.	8aJ 8f 8B/	.	.	.	.
4.C\)	8aL 8f 8c/	.	4ff/	.	.
.	8r	.	.	.	.
.	8gnJ 8e 8c#X 8B-X/	]	8gg/	.	.
(<4.CC\	8fL 8cn 8A</	.	(4.aa/	.	.
.	8r	.	.	.	.
.	8fJ 8Bn 8G</	.	.	.	.
4.C\)	8fL 8c 8A</	.	4ccc\	.	.
.	8r	.	.	.	.
.	8fJ 8c 8A-X</	.	8ddd\)	.	.
!!LO:LB:g=original
=82	=82	=82	=82	=82	=82
(<4.CC\	8eL 8c 8G</	.	([2.eee\	.	.
.	8r	.	.	.	.
.	8eJ 8c 8F#X</	.	.	.	.
4.C\)	8eL 8c 8G</	.	.	.	.
.	8r	.	.	.	.
.	8eJ 8c 8F#</	.	.	.	.
(<4.CC\	8eL 8c 8G</	.	4.eee\_	.	.
.	8r	.	.	.	.
.	8eJ 8c 8F#</	.	.	.	.
4.C\)	8eL 8c 8G</	.	4eee\]	.	.
.	8r	.	.	.	.
.	8e-XJ 8c 8F#<^>/	.	8eee-X\)	.	.
=83	=83	=83	=83	=83	=83
(<4.GGG\	8dL 8B< 8Fn</	.	((4.dddv\	.	.
.	8r	.	.	.	.
.	8dJ 8A#X< 8E</	.	.	.	.
4.GG\)	8dL 8B< 8F</	.	8gg/)	.	.
.	8r	.	8r	.	.
.	8dJ 8A#< 8E</	.	8gg`/)	.	.
(<4.GGG\	8dL 8B< 8F</	.	([4.dddu\	.	.
.	8r	.	.	.	.
.	8dJ 8A#< 8E</	.	.	.	.
4.GG\)	8dL 8B< 8F</	.	4ddd\]	.	.
.	8r	.	.	.	.
.	8eJ 8B< 8F<^>/	.	8eee\)	.	.
=84	=84	=84	=84	=84	=84
(<4.AAA\	8c<L 8A< 8E</	.	((4.ccc\	.	.
.	8r<	.	.	.	.
.	8B<J 8A< 8E</	.	.	.	.
4.AA\)	8c<L 8A< 8E</	.	8ee/)	.	.
.	8r<	.	8r	.	.
.	8B<J 8A< 8E</	.	8ee`/)	.	.
(<4.AAA\	8c<L 8A< 8E</	.	([4.ccc\	.	.
.	8r<	.	.	.	.
.	8B<J 8A< 8E</	.	.	.	.
4.AA\)	8c<L 8A< 8E</	.	4ccc\]	.	.
.	8r<	.	.	.	.
.	8B<J 8A< 8E<^>/	.	8bb\)	.	.
=85	=85	=85	=85	=85	=85
(<4.DD\	8A<L 8G</	.	(4.aav\	3	.
.	8r<	.	.	.	.
.	8G#X<J 8Gn</	.	.	.	.
4.D\)	8A<L 8G#y</	.	4.eeeo\)	.	.
.	8r<	.	.	.	.
.	8G#X<J 8Gn</	.	.	.	.
(<4.DD\	8A<L 8F#X< 8C</	.	(4.dddu\	2	.
.	8r<	.	.	.	.
.	8G#<J 8F#< 8C</	.	.	.	.
4.D\)	8A<L 8F#< 8C</	.	4aaa\	3	.
.	8r<	.	.	.	.
.	8D<J 8C</	.	8bbb\)	4	.
!!LO:LB:g=original
=86	=86	=86	=86	=86	=86
(<4.GGG\	8B<L 8D< 8BB</	.	([2.gggv\	2	<
.	8r<	.	.	.	.
.	8A#X<J 8G< 8C#X</	.	.	.	.
4.GG\)	8B<L 8G< 8D</	.	.	.	.
.	8r<	.	.	.	.
.	8A#<J 8G< 8C#</	.	.	.	.
!	!	!LO:HP:a	!	!	!
(<4.GGG\	8B<L 8G< 8D</	<	4.ggg\_	.	.
.	8r<	.	.	.	[
.	8dJ 8B 8G</	.	.	.	>
!	!	!LO:HP:a	!	!	!
4.GG\)	8gL 8d 8B</	[ >	4ggg\]	4	.
.	8r	.	.	.	.
.	8f#XJ 8c#X 8A#X</	]	8fff#X\)	.	]
=87	=87	=87	=87	=87	=87
(<4.GGG\	8fnL 8cn 8An</	.	4.fffn\	.	.
.	8r	.	.	.	.
.	8fJ 8c 8G#X</	.	.	.	.
4.GG\)	8fL 8c 8A</	.	4aa\	.	<
.	8r	.	.	.	.
.	8fJ 8c 8G#</	.	8ccc\	.	[
(<4.GGG\	8fL 8c 8A</	.	([4.fff\	.	>
.	8r	.	.	.	.
.	8fJ 8c 8G#</	.	.	.	.
4.GG\)	8fL 8c 8A</	.	4fff\]	.	.
.	8r	.	.	.	.
.	8gnJ 8d 8B<^>/	.	8ggg\)	.	]
=88	=88	=88	=88	=88	=88
(<4.GGG\	8eL 8B< 8G</	.	4.eee\	.	.
.	8r	.	.	.	.
.	8eJ 8A#X< 8F#X</	.	.	.	.
4.GG\)	8eL 8B< 8G</	.	4gg/	.	<
.	8r	.	.	.	.
.	8eJ 8A#< 8F#</	.	8bb\	.	[
(<4.GGG\	8eL 8B< 8G</	.	([4.eee\	.	>
.	8r	.	.	.	.
.	8eJ 8A#< 8F#</	.	.	.	.
4.GG\)	8eL 8B< 8G</	.	4eee\]	.	.
.	8r	.	.	.	.
.	8fnJ 8c< 8An<^>/	.	8fff\)	.	]
=89	=89	=89	=89	=89	=89
(<4.GGG\	8dL 8A< 8F</	.	4.ddd\	.	.
.	8r	.	.	.	.
.	8dJ 8A< 8E</	.	.	.	.
4.GG\)	8dL 8A< 8F</	.	4ff/	.	<
.	8r	.	.	.	.
.	8dJ 8A< 8E</	.	8aa/	.	.
(<4.GGG\	8dL 8A< 8F</	.	([4.ddd\	.	[ >
.	8r	.	.	.	.
.	8dJ 8A< 8E</	.	.	.	.
4.GG\)	8dL 8A< 8F</	.	4ddd\]	.	.
.	8r	.	.	.	.
.	8cJ 8A< 8F#X</	.	8ccc\)	.	]
!!LO:LB:g=original
=90	=90	=90	=90	=90	=90
(<4.GGG\	8B<L 8G</	.	([4.bb\	.	<
.	8r<	.	.	.	.
.	8B<J 8G< 8C#X</	.	.	.	.
4.GG\)	8B<L 8G< 8D</	.	4bb\]	.	.
!	!	!LO:HP:a	!	!	!
.	8r<	<	.	.	[
.	8dJ 8B 8G</	.	8ddd\)	.	sf
(<4.GGG\	8gL 8d 8B</	[	([4.ggg\	.	>
!	!	!LO:HP:a	!	!	!
.	8r	>	.	.	.
.	8gJ 8c#X 8A#X</	.	.	.	.
4.GG\)	8gL 8d 8B</	.	4ggg\]	.	.
.	8r	.	.	.	.
.	8f#J 8c# 8A#</	]	8fff#X\)	.	]
=91	=91	=91	=91	=91	=91
(<4.GGG\	8fnL 8cn 8An</	.	4.fffn\	.	.
.	8r	.	.	.	.
.	8fJ 8c 8G#X</	.	.	.	.
4.GG\)	8fL 8c 8A</	.	4aa\	.	<
.	8r	.	.	.	.
.	8fJ 8c 8G#</	.	8ccc\	.	.
(<4.GGG\	8fL 8c 8A</	.	([4.fff\	.	[ >
.	8r	.	.	.	.
.	8fJ 8c 8G#</	.	.	.	.
4.GG\)	8fL 8c 8A</	.	4fff\]	.	.
.	8r	.	.	.	.
.	8gnJ 8d 8B<^>/	.	8ggg\)	.	]
=92	=92	=92	=92	=92	=92
(<4.GGG\	8eL 8B< 8G</	.	4.eee\	.	.
.	8r	.	.	.	.
.	8eJ 8A#X< 8F#X</	.	.	.	.
4.GG\)	8eL 8B< 8G</	.	4gg/	.	<
.	8r	.	.	.	.
.	8eJ 8A#< 8F#</	.	8bb\	.	.
(<4.GGG\	8eL 8B< 8G</	.	([4.eee\	.	[ >
.	8r	.	.	.	.
.	8eJ 8F#</	.	.	.	.
4.GG\)	8eL 8B< 8G</	.	4eee\]	.	.
.	8r	.	.	.	.
.	8fnJ 8c< 8An<^>/	.	8fff\)	.	]
=93	=93	=93	=93	=93	=93
(<4.GGG\	8dL 8A< 8F</	.	4.ddd\	.	.
.	8r	.	.	.	.
.	8dJ 8A< 8E</	.	.	.	.
4.GG\)	8dL 8A< 8F</	.	4ff/	.	<
.	8r	.	.	.	.
.	8dJ 8A< 8E</	.	8aa/	.	.
(<4.GGG\	8dL 8A< 8F</	.	([4.ddd\	.	[ >
.	8r	.	.	.	.
.	8dJ 8A< 8E</	.	.	.	.
4.GG\)	8dL 8A< 8F</	.	4ddd\]	.	.
.	8r	.	.	.	.
.	8cJ 8A< 8F#X<^>/	.	8ccc\)	.	]
*	*	*	*X8va	*	*
!!LO:PB:g=original
=94||	=94||	=94||	=94||	=94||	=94||
*M4/4	*M4/4	*	*M4/4	*	*
*met(c)	*met(c)	*	*met(c)	*	*
!	!LO:TUP:a:problem=klamra łukowa	!	!	!	!
!	!LO:TX:a:B:t=Agitato più Presto.	!LO:DY:rj	!	!	!
4GG 4GGG\	12r<	p	(4bb\	.	>
*	*Xtuplet	*	*	*	*
.	12B<L 12G</	.	.	.	.
.	12D</J	.	.	.	.
4C 4CC\	12r	.	4ff#X\)	.	]
.	(12f#XL 12d/	<	.	.	.
.	12A/J)	.	.	.	.
4BB 4BBB/	12r	.	((4gg\	.	<
.	(12gL 12d/	.	.	.	.
.	12G/J)	[	.	.	.
4AA 4AAA/	12r	f	8ccc\L)	.	.
.	(12f#L 12d/	>	.	.	.
.	.	.	16r	.	[
.	12c/J)	]]	.	.	.
.	.	.	16ccc\Jk)	.	.
=95	=95	=95	=95	=95	=95
4GG 4GGG/	12r	p	(4bb\	.	>
.	(12gL 12d/	.	.	.	.
.	12B/J)	.	.	.	.
4C 4CC/	12r	.	4ff#X\)	.	]
.	(12f#XL 12d/	<	.	.	.
.	12A/J)	.	.	.	.
4BB 4BBB/	12r	.	((4gg\	.	<
.	(12gL 12d/	.	.	.	.
.	12G/J)	[	.	.	.
4AA 4AAA/	12r	f	8ccc\L)	.	.
.	(12f#L 12d/	>	.	.	.
.	.	.	16r	.	[
.	12c/J)	]]	.	.	.
.	.	.	16ccc\Jk`)	.	.
=96	=96	=96	=96	=96	=96
(4GGG/	12r	p	(4bb\	.	>
.	(12gL 12d/	.	.	.	.
.	12B/J)	.	.	.	.
4GG/)	12r	.	4gg\	.	.
.	(12gL 12d/	.	.	.	.
.	12B/J)	.	.	.	.
!	!	!LO:DY:b=2	!	!	!
(4AAA-X/	12r	sf	4ff#X\)	.	]
.	(12f#XL 12e-X/	sf >	.	.	.
.	12c/J)	.	.	.	.
4AA-X/)	12r	.	(8ff#\L	.	.
.	(12f#L 12e-/	.	.	.	.
.	.	.	16r	.	.
.	12c/J)	]]	.	.	.
.	.	.	16ff#'\Jk)	.	.
=97	=97	=97	=97	=97	=97
(4AAAn/	12r	p	((4ffn\	.	<
.	(12fnL 12c/	<	.	.	.
.	12F/J)	.	.	.	.
4AAn/)	12r	[ >	8ccc\L)	.	.
.	(12ccL 12f/	.	.	.	.
.	.	.	16r	.	[
.	12c/J)	]	.	.	.
.	.	.	16ccc\Jk)	.	f
(4BBB-X/	12r	<	((4ee\	.	<
.	(12eL 12c/	.	.	.	.
.	12G/J)	.	.	.	.
4BB-X/)	12r	[ >	8ccc\L)	.	.
.	(12ccL 12e/	.	.	.	.
.	.	.	16r	.	[
.	12c/J)	]]	.	.	.
.	.	.	16ccc\Jk)	.	f
!!LO:LB:g=original
=98	=98	=98	=98	=98	=98
(4BBBn/	12r	.	((4ee\	.	<
.	(12eL 12B/	<	.	.	.
.	12G/J)	.	.	.	.
4BBn/)	12r	.	8bb\L)	.	.
.	(12bL 12e/	.	.	.	.
.	.	.	16r	.	.
.	12B/J)	.	.	.	.
.	.	.	16bb\Jk)`	.	[ f
(4CC/	12r	.	((4ee\	.	<
.	(12eL 12B-X/	.	.	.	.
.	12G/J)	[	.	.	.
4C/)	12r	f	8bb-X\L)	.	.
.	(12b-XL 12e/	.	.	.	.
.	.	.	16r	.	.
.	12B-/J)	.	.	.	.
.	.	.	16bb-\Jk)	.	[ ff
=99	=99	=99	=99	=99	=99
(4CC#X/	12r	p	((4ee\	.	p
.	(12gL 12c/	.	.	.	.
.	12G/J)	.	.	.	.
4C#X/)	12r	>	8aao\L)	.	.
.	(12ccL 12e/	.	.	.	.
.	.	.	16r	.	.
.	12A/J)	.	.	.	.
.	.	.	16aa\Jk)	.	.
(4DD/	12r	.	((4ee\	.	.
.	(12eL 12Bn/	.	.	.	.
.	12G#X/J)	.	.	.	.
4D/)	12r	.	8gg#X\L)	.	.
.	(12g#XL 12e/	.	.	.	.
.	.	.	16r	.	.
.	12B/J)	]	.	.	.
.	.	.	16gg#\Jk)`	.	.
=100	=100	=100	=100	=100	=100
!	!LO:TX:b:i:t=doloroso e morendo.:dur=4q	!	!	!	!
(<4EE-X/	12r	.	((4ee-X\	.	<
.	(12a-XL 12e-X/	.	.	.	.
.	12c/J)	.	.	.	.
4E-X\)	12r	.	8aa-X\L)	.	.
.	(12e-L 12c/	.	.	.	.
.	.	.	16r	.	.
.	12A-X/J)	.	.	.	.
.	.	.	16aa-\Jk)`	.	[
!	!	!LO:DY:b=2	!	!	!
(<4DD/	12r	sf	(4ff\	.	sf >
.	(12fL 12c-X^/	.	.	.	.
.	12A-/J)	.	.	.	.
4D/)	12r	.	8.gg\L	.	.
.	(12a-L 12f/	.	.	.	.
.	12c-/J)	.	.	.	.
.	.	.	16aa-X\Jk)	.	]
=101	=101	=101	=101	=101	=101
(<4EE-X/	12r	.	((4ee-X\	.	<
.	(12a-XL 12e-X/	.	.	.	.
.	12cn/J)	.	.	.	.
4E-X\)	12r	.	8aa-X\L)	.	.
.	(12e-L 12c/	.	.	.	.
.	.	.	16r	.	.
.	12A-X/J)	.	.	.	.
.	.	.	16aa-\Jk)	.	[
(<4DD^/	12r	.	(4ff-X\	.	sf >
.	(12f-XL 12c-X^/	.	.	.	.
.	12A-/J)	.	.	.	.
4D/)	12r	.	8.gg-X\L	.	.
.	(12a-L 12f-/	.	.	.	.
.	12c-/J)	.	.	.	.
.	.	.	16aa-\Jk)	.	]
!!LO:LB:g=original
=102	=102	=102	=102	=102	=102
*	*	*	*Xtuplet	*	*
!	!LO:TX:a:i:t=tranquillo.	!	!	!	!
8EE-X/	12r	ppp	12ee-X\L	.	.
.	(12ccnL 12a-X/	.	(12cc\	.	.
8r	.	.	.	.	.
.	12e-X/J)	.	12dd-X\J	.	.
*tremolo	*	*	*	*	*
32E-XLLL 32EE-^/	12r	.	12ee-\L	.	.
32E- 32EE-^/	.	.	.	.	.
32E- 32EE-^/	.	.	.	.	.
.	(12a-L 12e-/	.	12cc\	.	.
32E- 32EE-^/	.	.	.	.	.
32E- 32EE-^/	.	.	.	.	.
32E- 32EE-^/	.	.	.	.	.
.	12c/J)	.	12ffn\J	.	.
32E- 32EE-^/	.	.	.	.	.
32E-JJJ 32EE-^/	.	.	.	.	.
*Xtremolo	*	*	*	*	*
8EE-/	12r	.	12ee-\L)	.	.
.	(12e-L 12c/	.	(12cc\	.	.
8r	.	.	.	.	.
.	12A-X/J)	.	12dd-\J	.	.
*tremolo	*	*	*	*	*
32E-LLL 32EE-^/	12r	.	12ee-\L	.	.
32E- 32EE-^/	.	.	.	.	.
32E- 32EE-^/	.	.	.	.	.
.	(12a-L 12e-/	.	12cc\	.	.
32E- 32EE-^/	.	.	.	.	.
32E- 32EE-^/	.	.	.	.	.
32E- 32EE-^/	.	.	.	.	.
.	12c/J)	.	12ff\J	.	.
32E- 32EE-^/	.	.	.	.	.
32E-JJJ 32EE-^/	.	.	.	.	.
*Xtremolo	*	*	*	*	*
=103	=103	=103	=103	=103	=103
8EE-X/	12r	.	12ee-X\L)	.	.
.	(12ccL 12a-X/	.	(12cc\	.	.
8r	.	.	.	.	.
.	12e-X/J)	.	12dd-X\J	.	.
*tremolo	*	*	*	*	*
32E-XLLL 32EE-^/	12r	.	12ee-\L	.	.
32E- 32EE-^/	.	.	.	.	.
32E- 32EE-^/	.	.	.	.	.
.	(12a-L 12e-/	.	12cc\	.	.
32E- 32EE-^/	.	.	.	.	.
32E- 32EE-^/	.	.	.	.	.
32E- 32EE-^/	.	.	.	.	.
.	12c/J)	.	12ff\J	.	.
32E- 32EE-^/	.	.	.	.	.
32E-JJJ 32EE-^/	.	.	.	.	.
*Xtremolo	*	*	*	*	*
8EE-/	12r	.	12ee-\L)	.	.
.	(12e-L 12c/	.	(12cc\	.	.
8r	.	.	.	.	.
.	12A-X/J)	.	12dd-\J	.	.
*tremolo	*	*	*	*	*
32E-LLL 32EE-^/	12r	.	12ee-\L	.	.
32E- 32EE-^/	.	.	.	.	.
32E- 32EE-^/	.	.	.	.	.
.	(12a-L 12e-/	.	12cc\	.	.
32E- 32EE-^/	.	.	.	.	.
32E- 32EE-^/	.	.	.	.	.
32E- 32EE-^/	.	.	.	.	.
.	12c/J)	.	12ff\J	.	.
32E- 32EE-^/	.	.	.	.	.
32E-JJJ 32EE-^/	.	.	.	.	.
=104	=104	=104	=104	=104	=104
!	!	!LO:HP:t=poco a poco cresc.	!	!	!
(32EEE-X/LLL	12r	<	12ee-X\L)	.	.
32EE-/	.	.	.	.	.
32EEE-/	.	.	.	.	.
.	(12ccL 12an 12f#X^/	.	(12cc\	.	.
32EE-/	.	.	.	.	.
32EEE-/	.	.	.	.	.
32EE-/	.	.	.	.	.
.	12e-X/J)	.	12ee-\J	.	.
32EEE-/	.	.	.	.	.
32EE-/	.	.	.	.	.
32EEE-/	12r	.	12ff#X^<\L)	.	.
32EE-/	.	.	.	.	.
32EEE-/	.	.	.	.	.
.	(12aL 12f# 12e-^/	.	(12ee-\	.	.
32EE-/	.	.	.	.	.
32EEE-/	.	.	.	.	.
32EE-/	.	.	.	.	.
.	12c/J)	.	12ff#\J	.	.
32EEE-/	.	.	.	.	.
32EE-X/JJJ)	.	.	.	.	.
(32EEE-/LLL	12r	.	12aa^<\L)	.	.
32EE-/	.	.	.	.	.
32EEE-/	.	.	.	.	.
.	(12f#L 12e- 12c^/	.	(12ff#\	.	.
32EE-/	.	.	.	.	.
32EEE-/	.	.	.	.	.
32EE-/	.	.	.	.	.
.	12An/J)	.	12aa\J	.	.
32EEE-/	.	.	.	.	.
32EE-/	.	.	.	.	.
32EEE-/	12r	.	12ccc^<\L)	.	.
32EE-/	.	.	.	.	.
32EEE-/	.	.	.	.	.
.	(12aL 12f# 12e-^/	.	(12aa\	.	.
32EE-/	.	.	.	.	.
32EEE-/	.	.	.	.	.
32EE-/	.	.	.	.	.
.	12c/J)	.	12ccc\J	.	.
32EEE-/	.	.	.	.	.
32EE-/JJJ)	.	.	.	.	.
=105	=105	=105	=105	=105	=105
(32EEE-X/LLL	12r	.	12eee-X^<\L)	.	.
32EE-/	.	.	.	.	.
32EEE-/	.	.	.	.	.
.	(12ccL 12a 12f#X^/	.	(12ccc\	.	.
32EE-/	.	.	.	.	.
32EEE-/	.	.	.	.	.
32EE-/	.	.	.	.	.
.	12e-X/J)	.	12eee-\J	.	.
32EEE-/	.	.	.	.	.
32EE-/	.	.	.	.	.
32EEE-/	12r	.	12fff#X^<\L)	.	.
32EE-/	.	.	.	.	.
32EEE-/	.	.	.	.	.
.	(12aL 12f# 12e-^/	.	(12eee-\	.	.
32EE-/	.	.	.	.	.
32EEE-/	.	.	.	.	.
32EE-/	.	.	.	.	.
.	12c/J)	.	12fff#\J	.	.
32EEE-/	.	.	.	.	.
32EE-X/JJJ)	.	.	.	.	.
(32EEE-/LLL	12r	.	12aaa^<\L)	.	.
32EE-/	.	.	.	.	.
32EEE-/	.	.	.	.	.
.	(12f#L 12e- 12c^/	.	(12fff#\	.	.
32EE-/	.	.	.	.	.
32EEE-/	.	.	.	.	.
32EE-/	.	.	.	.	.
.	12A/J)	.	12aaa\J	.	.
32EEE-/	.	.	.	.	.
32EE-/	.	.	.	.	.
32EEE-/	12r	.	12cccc^<\L)	.	.
32EE-/	.	.	.	.	.
32EEE-/	.	.	.	.	.
.	(12aL 12f# 12e-^/	.	(12aaa\	.	.
32EE-/	.	.	.	.	.
32EEE-/	.	.	.	.	.
32EE-/	.	.	.	.	.
.	12c/J)	.	12cccc\J)	.	.
32EEE-/	.	.	.	.	.
32EE-/JJJ)	.	.	.	.	.
*Xtremolo	*	*	*	*	*
!!LO:LB:g=original
=106||	=106||	=106||	=106||	=106||	=106||
!!!key: G
*k[f#]	*k[f#]	*	*k[f#]	*	*
*M6/8	*M6/8	*	*M6/8	*	*
!	!LO:TX:a:B:t=Allegro vivace.	!LO:DY:a	!	!	!
8DD 8DDD/	8r	ff	8dddd\	.	.
8r	16a^^</LL	.	8r	.	.
.	16a^^</J	.	.	.	.
8r	8a^^</J	.	8r	.	.
4r	8a^^</L	.	4r	.	.
.	8f#^^</	.	.	.	.
8r	8a^^</J	.	8r	.	.
=107	=107	=107	=107	=107	=107
2.r	8dd^^\L	.	2.r	.	.
.	16dd^^\L	.	.	.	.
.	16dd^^\J	.	.	.	.
.	8dd^^\J	.	.	.	.
.	8a^^</L	.	.	.	.
.	8f#^^</	.	.	.	.
.	8a^^</J	.	.	.	.
=108	=108	=108	=108	=108	=108
8r>	8d^^</L	.	2.r	.	.
16f#>\LL	16a^^/L	f	.	.	.
16f#>\J	16a^^/J	.	.	.	.
8f#>\J	8a^^/J	.	.	.	.
8f#>\L	8a^^/L	.	.	.	.
8d>\	8f#^^/	.	.	.	.
8f#>\J	8a^^/J	.	.	.	.
=109	=109	=109	=109	=109	=109
8a>\L	8dd^^/L	.	2.r	.	.
16a>\L	16dd^^/L	.	.	.	.
16a>\J	16dd^^/J	.	.	.	.
8a>\J	8dd^^/J	.	.	.	.
8f#>\L	8a^^/L	.	.	.	.
8d>\	8f#^^/	.	.	.	.
8f#>\J	8a^^/J	.	.	.	.
=110	=110	=110	=110	=110	=110
8a>\	8dd^^/	.	8ddd 8dd/	.	ff
8rd>	8rdd	.	8a 8d\	.	.
8rd>	8rdd	.	(8aaL 8ff#/	.	sf
8DD 8AAA 8FFF# 8DDD/	8dd 8a 8f# 8d 8c/	sf	8dddJ 8ff#/)	.	.
8r	8r	.	8a 8d\	.	.
!	!	!	!LO:TX:t=P:problem=cross-measure beam	!	!
8r	8r	.	(8aaL 8ff#/	.	sf
!!LO:PB:g=original
=111	=111	=111	=111	=111	=111
8DD 8AAA 8FFF# 8DDD/	8dd 8a 8f# 8d 8c/	sf	8dddJ 8ff#/)	.	.
8r	8r	.	8a 8d\	.	.
!	!	!	!	!	!LO:HP:a
8r	8r	.	(8aaL 8ff#/	.	sf >
8DD 8AAA 8FFF# 8DDD/	8dd 8a 8f# 8d 8c/	sf	8dddJ 8ff#/)	.	]
8r	8r	.	8a 8d\	.	.
!	!	!	!LO:TX:t=P:problem=cross-measure beam	!	!
8r	8r	.	(8aaL 8ff#/	.	sf
=112	=112	=112	=112	=112	=112
8DD 8AAA 8FFF# 8DDD/	8dd 8a 8f# 8d 8c/	sf	8dddJ 8ff#/)	.	.
!	!	!	!	!	!LO:DY:rj
8r	8r	.	(8a 8d\	.	sf
8DD 8AAA 8FFF# 8DDD/	8dd 8a 8f# 8d 8c/	sf	8ddd 8ff#/)	.	.
!	!	!	!	!	!LO:DY:rj
8r	8r	.	(8a 8d\	.	sf
8DD 8AAA 8FFF# 8DDD/	8dd 8a 8f# 8d 8c/	sf	8ddd 8ff#/)	.	.
8r	8r	.	(8a 8d\	.	.
=113	=113	=113	=113	=113	=113
8DD 8AAA 8FFF# 8DDD/	8dd 8a 8f# 8d 8c/	sf	8ddd 8ff#/)	.	.
8r	8r	.	(8a 8d\	.	.
8DD 8AAA 8FFF# 8DDD/	8dd 8a 8f# 8d 8c/	sf	8ddd 8ff#/)	.	.
8r	8r	.	(8a 8d\	.	.
8DD 8AAA 8FFF# 8DDD/	8dd 8a 8f# 8d 8c/	sf	8ddd 8ff#/)	.	.
8r	8r	.	(8a 8d\	.	.
=114	=114	=114	=114	=114	=114
[[32qqGG/LLL	[[32qqG/LLL	.	.	.	.
[[32qqBB/	[[32qqB/	.	.	.	.
!LO:S:s=1:note:problem=note-level slur	!LO:S:s=1:note:problem=note-level slur	!	!	!	!
(32qqC#X/JJJ	(32qqc#X/JJJ	.	.	.	.
!LO:S:s=1:note:problem=note-level slur	!LO:S:s=1:note:problem=note-level slur	!	!	!	!
8D) 8BB]] 8GG]]`>/	8d) 8B]] 8G]]`>/	.	8dd 8bv/)	.	.
8r	8r	.	8G\	.	.
!	!	!	!	!	!LO:HP:a
8r	8r	.	(8cc#XL 8a#X/	.	<
[[32qqGG/LLL	[[32qqG/LLL	.	.	.	.
[[32qqBB/	[[32qqB/	.	.	.	.
32qqC#/JJJ	32qqc#/JJJ	.	.	.	.
8D 8BB]] 8GG]]`>/	8d 8B]] 8G]]`>/	.	16ddJk 16b'/)	.	[
.	.	.	16r	.	.
8r	8r	.	8G\	.	.
!	!	!	!LO:TX:t=P:problem=cross-measure beam	!	!LO:HP:a
8r	8r	.	(8cc#L 8a#/	.	<
=115	=115	=115	=115	=115	=115
[[32qqGG/LLL	[[32qqG/LLL	.	.	.	.
[[32qqBB/	[[32qqB/	.	.	.	.
32qqC#X/JJJ	32qqc#X/JJJ	.	.	.	.
8D 8BB]] 8GG]]`>/	8d 8B]] 8G]]`>/	.	16ddJk 16b/)	.	[
.	.	.	16r	.	.
8r	8r	.	8G\	.	.
!	!	!	!	!	!LO:HP:a
8r	8r	.	(8cc#XL 8a#X/	.	<
[[32qqGG/LLL	[[32qqG/LLL	.	.	.	.
[[32qqBB/	[[32qqB/	.	.	.	.
32qqC#/JJJ	32qqc#/JJJ	.	.	.	.
8D 8BB]] 8GG]]`>/	8d 8B]] 8G]]`>/	.	16ddJk 16b/)	.	[
.	.	.	16r	.	.
8r	8r	.	8G\	.	.
!	!	!	!LO:TX:t=P:problem=cross-measure beam	!	!LO:HP:a
8r	8r	.	(8ggL 8b/	.	<
!!LO:LB:g=original
=116	=116	=116	=116	=116	=116
[[32qqGG/LLL	[[32qqA/LLL	.	.	.	.
32qqCn/	[[32qqc/	.	.	.	.
32qqC#X/JJJ	[32qqd/JJJ	.	.	.	.
8D 8GG]]`>/	8f# 8d] 8c]] 8A]]`>/	.	16aanJk 16ccn'/)	.	[
.	.	.	16r	.	.
8r	8r	.	8G\	.	.
!	!	!	!	!	!LO:HP:a
8r	8r	.	(8gg#XL 8b/	.	<
[[32qqGG/LLL	[[32qqA/LLL	.	.	.	.
32qqCn/	[[32qqc/	.	.	.	.
32qqC#X/JJJ	[32qqd/JJJ	.	.	.	.
8D 8GG]]`>/	8f# 8d] 8c]] 8A]]`>/	.	16aaJk 16cc'/)	.	[
.	.	.	16r	.	.
8r	8r	.	8G\	.	.
!	!	!	!LO:TX:t=P:problem=cross-measure beam	!	!LO:HP:a
8r	8r	.	(8aa#XL 8cc#X/	.	<
=117	=117	=117	=117	=117	=117
[[32qqGG/LLL	[[32qqG/LLL	.	.	.	.
[[32qqBB/	[[32qqB/	.	.	.	.
32qqC#X/JJJ	[32qqd/JJJ	.	.	.	.
8D 8BB]] 8GG]]`>/	8g 8d] 8B]] 8G]]`>/	.	16bbJk 16dd'/)	.	[
.	.	.	16r	.	.
8r	8r	.	8G\	.	.
!	!	!	!	!	!LO:HP:a
8r	8r	.	(8aanL 8ccn/	.	<
[[32qqGG/LLL	[[32qqG/LLL	.	.	.	.
[[32qqBB/	[[32qqB/	.	.	.	.
32qqC#/JJJ	[32qqd/JJJ	.	.	.	.
8D 8BB]] 8GG]]`>/	8g 8d] 8B]] 8G]]`>/	.	16ggnJk 16b'/)	.	[
.	.	.	16r	.	.
8r	8r	.	8G\	.	.
!	!	!	!LO:TX:t=P:problem=cross-measure beam	!	!LO:HP:a
8r	8r	.	(8eeL 8cc/	.	<
=118	=118	=118	=118	=118	=118
[[32qqGG/LLL	[[32qqG/LLL	.	.	.	.
[[32qqBB/	[[32qqB/	.	.	.	.
32qqC#X/JJJ	32qqc#X/JJJ	.	.	.	.
8D 8BB]] 8GG]]`>/	8d 8B]] 8G]]`>/	.	16ddJk 16b'/)	.	[
.	.	.	16r	.	.
8r	8r	.	8G\	.	.
!	!	!	!	!	!LO:HP:a
8r	8r	.	(8cc#XL 8a#X/	.	<
[[32qqGG/LLL	[[32qqG/LLL	.	.	.	.
[[32qqBB/	[[32qqB/	.	.	.	.
32qqC#/JJJ	32qqc#/JJJ	.	.	.	.
8D 8BB] 8GG]]`>/	8d 8B]] 8G]]`>/	.	16ddJk 16b'/)	.	[
.	.	.	16r	.	.
8r	8r	.	8G\	.	.
!	!	!	!LO:TX:t=P:problem=cross-measure beam	!	!LO:HP:a
8r	8r	.	(8cc#L 8a#/	.	<
=119	=119	=119	=119	=119	=119
[[32qqGG/LLL	[[32qqG/LLL	.	.	.	.
[[32qqBB/	[[32qqB/	.	.	.	.
32qqC#X/JJJ	32qqc#X/JJJ	.	.	.	.
8D 8BB]] 8GG]]`>/	8d 8B]] 8G]]`>/	.	16ddJk 16b'/)	.	[
.	.	.	16r	.	.
8r	8r	.	8G\	.	.
!	!	!	!	!	!LO:HP:a
8r	8r	.	(8cc#XL 8a#X/	.	<
[[32qqGG/LLL	[[32qqG/LLL	.	.	.	.
[[32qqBB/	[[32qqB/	.	.	.	.
32qqC#/JJJ	32qqc#/JJJ	.	.	.	.
8D 8BB]] 8GG]]/	8d 8B]] 8G]]/	.	16ddJk 16b/)	.	[
.	.	.	16r	.	.
8r	8r	.	8G\	.	.
!	!	!	!LO:TX:t=P:problem=cross-measure beam	!	!LO:HP:a
8r	8r	.	(8ggL 8b/	.	<
=120	=120	=120	=120	=120	=120
[[32qqGG/LLL	[[32qqA/LLL	.	.	.	.
32qqCn/	[[32qqcn/	.	.	.	.
32qqC#X/JJJ	[32qqd/JJJ	.	.	.	.
8D 8GG]]/	8f# 8d] 8c]] 8A]]/	.	16aanJk 16ccn'/)	.	[
.	.	.	16r	.	.
8r	8r	.	8G\	.	.
!	!	!	!	!	!LO:HP:a
8r	8r	.	(8gg#XL 8b/	.	<
[[32qqGG/LLL	[[32qqA/LLL	.	.	.	.
32qqCn/	[[32qqc/	.	.	.	.
32qqC#X/JJJ	[32qqd/JJJ	.	.	.	.
8D 8GG]]/	8f# 8d] 8c]] 8A]]/	.	16aaJk 16cc'/)	.	[
.	.	.	16r	.	.
8r	8r	.	8Gn\	.	.
!	!	!	!LO:TX:t=P:problem=cross-measure beam	!	!LO:HP:a
8r	8r	.	(8bbL 8dd/	.	<
!!LO:LB:g=original
=121	=121	=121	=121	=121	=121
[[32qqGG/LLL	[[32qqG/LLL	.	.	.	.
[[32qqBB/	[[32qqB/	.	.	.	.
32qqC#X/JJJ	[32qqd/JJJ	.	.	.	.
8D 8BB]] 8GG]]/	8g 8d] 8B]] 8G]]/	.	16ggnJk 16b'/)	.	[
.	.	.	16r	.	.
8r	8r	.	8G\	.	.
8r	8r	.	(8dddL 8dd/	.	.
8GG 8GGG/`	8gg 8dd 8b 8g\`	sf	16gggJk 16gg/)	.	sf
.	.	.	16r	.	[
8r	8r	.	8r	.	.
8r	8r	.	8r	.	.
=122	=122	=122	=122	=122	=122
[[32qqGG/LLL	[[32qqG/LLL	.	.	.	.
[[32qqBB/	[[32qqB/	.	.	.	.
32qqC#X/JJJ	32qqc#X/JJJ	.	.	.	.
8D 8BB]] 8GG]]/	8d 8B]] 8G]]/	.	8dd 8bv/	.	.
8r	8r	.	8G\	.	.
!	!	!	!	!	!LO:HP:a
8r	8r	.	(8cc#XL 8a#X/	.	<
[[32qqGG/LLL	[32qqG/LLL	.	.	.	.
[[32qqBB/	[32qqB/	.	.	.	.
32qqC#/JJJ	32qqc#/JJJ	.	.	.	.
8D 8BB]] 8GG]]/	8d 8B]] 8G]]/	.	16ddJk 16b/)	.	[
.	.	.	16r	.	.
8r	8r	.	8G\	.	.
!	!	!	!LO:TX:t=P:problem=cross-measure beam	!	!LO:HP:a
8r	8r	.	(8cc#L 8a#/	.	<
=123	=123	=123	=123	=123	=123
[[32qqGG/LLL	[[32qqG/LLL	.	.	.	.
[[32qqBB/	[[32qqB/	.	.	.	.
32qqC#X/JJJ	32qqc#X/JJJ	.	.	.	.
8D 8BB]] 8GG]]/	8d 8B]] 8G]]/	.	16ddJk 16b/)	.	[
.	.	.	16r	.	.
8r	8r	.	8G\	.	.
!	!	!	!	!	!LO:HP:a
8r	8r	.	(8cc#XL 8a#X/	.	<
[[32qqGG/LLL	[[32qqG/LLL	.	.	.	.
[[32qqBB/	[[32qqB/	.	.	.	.
32qqC#/JJJ	32qqc#/JJJ	.	.	.	.
8D 8BB]] 8GG]]/	8d 8B]] 8G]]/	.	16ddJk 16b/)	.	[
.	.	.	16r	.	.
8r	8r	.	8G\	.	.
!	!	!	!LO:TX:t=P:problem=cross-measure beam	!	!LO:HP:a
8r	8r	.	8ggL 8b/	.	<
=124	=124	=124	=124	=124	=124
[[32qqGG/LLL	[[32qqA/LLL	.	.	.	.
32qqCn/	[[32qqcn/	.	.	.	.
32qqC#X/JJJ	[32qqd/JJJ	.	.	.	.
8D 8GG]]/	8f# 8d] 8c]] 8A]]/	.	16aanJk 16ccn/	.	[
.	.	.	16r	.	.
8r	8r	.	8G\	.	.
!	!	!	!	!	!LO:HP:a
8r	8r	.	(8gg#XL 8b/	.	<
[[32qqGG/LLL	[[32qqA/LLL	.	.	.	.
32qqCn/	[[32qqc/	.	.	.	.
32qqC#X/JJJ	[32qqd/JJJ	.	.	.	.
8D 8GG]]/	8f# 8d] 8c]] 8A]]/	.	16aaJk 16cc/)	.	[
.	.	.	16r	.	.
8r	8r	.	8Gn\	.	.
!	!	!	!LO:TX:t=P:problem=cross-measure beam	!	!LO:HP:a
8r	8r	.	(8aa#XL 8cc#X/	.	<
=125	=125	=125	=125	=125	=125
[[32qqGG/LLL	[[32qqG/LLL	.	.	.	.
[[32qqBB/	[[32qqB/	.	.	.	.
32qqC#X/JJJ	[32qqd/JJJ	.	.	.	.
8D 8BB]] 8GG]]/	8g 8d] 8B]] 8G]]/	.	16bbJk 16dd/)	.	[
.	.	.	16r	.	.
8r	8r	.	8G\	.	.
!	!	!	!	!	!LO:HP:a
8r	8r	.	(8aanL 8ccn/	.	<
[[32qqGG/LLL	[[32qqG/LLL	.	.	.	.
[[32qqBB/	[[32qqB/	.	.	.	.
32qqC#/JJJ	[32qqd/JJJ	.	.	.	.
8D 8BB]] 8GG]]/	8g 8d] 8B]] 8G]]/	.	16ggJk 16b/)	.	[
.	.	.	16r	.	.
8r	8r	.	8G\	.	.
!	!	!	!LO:TX:t=P:problem=cross-measure beam	!	!LO:HP:a
8r	8r	.	(8eeL 8cc/	.	<
!!LO:LB:g=original
=126	=126	=126	=126	=126	=126
[[32qqGG/LLL	[[32qqG/LLL	.	.	.	.
[[32qqBB/	[[32qqB/	.	.	.	.
32qqC#X/JJJ	32qqc#X/JJJ	.	.	.	.
8D 8BB]] 8GG]]/	8d 8B]] 8G]]/	.	16eeJk 16b/)	.	[
.	.	.	16r	.	.
8r	8r	.	8G\	.	.
!	!	!	!	!	!LO:HP:a
8r	8r	.	(8cc#XL 8a#X/	.	<
[[32qqGG/LLL	[[32qqG/LLL	.	.	.	.
[[32qqBB/	[[32qqB/	.	.	.	.
32qqC#/JJJ	32qqc#/JJJ	.	.	.	.
8D 8BB]] 8GG]]/	8d 8B]] 8G]]/	.	16ddJk 16b/)	.	[
.	.	.	16r	.	.
8r	8r	.	8G\	.	.
!	!	!	!LO:TX:t=P:problem=cross-measure beam	!	!LO:HP:a
8r	8r	.	(8cc#L 8a#/	.	<
=127	=127	=127	=127	=127	=127
[[32qqGG/LLL	[[32qqG/LLL	.	.	.	.
[[32qqBB/	[[32qqB/	.	.	.	.
32qqC#X/JJJ	32qqc#X/JJJ	.	.	.	.
8D 8BB]] 8GG]]/	8d 8B]] 8G]]/	.	16ddJk 16b/)	.	[
.	.	.	16r	.	.
8r	8r	.	8G\	.	.
!	!	!	!	!	!LO:HP:a
8r	8r	.	(8cc#XL 8a#X/	.	<
[[32qqGG/LLL	[[32qqG/LLL	.	.	.	.
[[32qqBB/	[[32qqB/	.	.	.	.
32qqC#/JJJ	32qqc#/JJJ	.	.	.	.
8D 8BB]] 8GG]]/	8d 8B]] 8G]]/	.	16ddJk 16b/)	.	[
.	.	.	16r	.	.
8r	8r	.	8G\	.	.
!	!	!	!LO:TX:t=P:problem=cross-measure beam	!	!LO:HP:a
8r	8r	.	(8ggL 8b/	.	<
=128	=128	=128	=128	=128	=128
[[32qqGG/LLL	[32qqA/LLL	.	.	.	.
32qqCn/	[32qqcn/	.	.	.	.
32qqC#X/JJJ	[32qqd/JJJ	.	.	.	.
8D 8GG]]/	8f# 8d] 8c]] 8A]]/	.	16aanJk 16ccn/)	.	[
.	.	.	16r	.	.
8r	8r	.	8G\	.	.
!	!	!	!	!	!LO:HP:a
8r	8r	.	(8gg#XL 8b/	.	<
[[32qqGG/LLL	[[32qqA/LLL	.	.	.	.
32qqCn/	[[32qqc/	.	.	.	.
32qqC#X/JJJ	[32qqd/JJJ	.	.	.	.
8D 8GG]]/	8f# 8d] 8c]] 8A]]/	.	16aaJk 16cc/)	.	[
.	.	.	16r	.	.
8r	8r	.	8Gn\	.	.
!	!	!	!LO:TX:t=P:problem=cross-measure beam	!	!LO:HP:a
8r	8r	.	(8bbL 8dd/	.	<
=129	=129	=129	=129	=129	=129
[[32qqGG/LLL	[[32qqG/LLL	.	.	.	.
[[32qqBB/	[[32qqB/	.	.	.	.
32qqC#X/JJJ	[32qqd/JJJ	.	.	.	.
8D 8BB]] 8GG]]/	8g 8d] 8B]] 8G]]/	.	16ggnJk 16b/)	.	[
.	.	.	16r	.	.
8r	8r	.	8G\	.	.
8r	8r	.	(8dddL 8dd/	.	.
8GG 8GGG/`	8gg 8dd 8b 8g\`	sf	16gggJk 16gg/)	.	sf
.	.	.	16r	.	.
8r	8r	.	8r	.	.
8r	8r	.	8r	.	.
!!LO:PB:g=original
=130	=130	=130	=130	=130	=130
!	!LO:TX:a:i:t=staccato.	!LO:DY:rj	!	!	!
8E\L	8gL 8e 8B/	p <	8gg 8b/	.	.
8r	8r	.	8f# 8B\	.	.
8BB\J	8f#J 8d#X 8B^/	.	(8bbL 8dd#X/	.	.
8E\L	8gL 8e 8B/	.	16ggJk 16b/)	.	.
.	.	.	16r	.	.
8r	8r	.	8f# 8B\	.	.
!	!	!	!LO:TX:t=P:problem=cross-measure beam	!	!
8BB\J	8f#J 8d# 8B^/	.	(8bbL 8dd#/	.	.
=131	=131	=131	=131	=131	=131
8E\L	8gL 8e 8B/	.	16ggJk 16b/)	.	.
.	.	.	16r	.	.
8r	8r	.	8e 8A\	.	.
8AA\J	8eJ 8c#X 8A^/	.	(8aaL 8cc#X/	.	.
8D\L	8f#L 8d 8A/	.	16ff#Jk 16a/)	.	.
.	.	.	16r	.	.
8r	8r	.	8e 8A\	.	.
!	!	!	!LO:TX:t=P:problem=cross-measure beam	!	!
8AA\J	8eJ 8c# 8A^/	.	(8aaL 8cc#/	.	.
=132	=132	=132	=132	=132	=132
8D\L	8f#L 8d 8A/	.	16ff#Jk 16a/)	.	.
.	.	.	16r	.	.
8r	8r	.	8d 8G\	.	.
8GG\J	8dJ 8B 8G^/	.	(8ggL 8b/	.	.
8C\L	8eL 8cn 8G/	.	16eeJk 16g/)	.	.
.	.	.	16r	.	.
8r	8r	.	8c 8G\	.	.
!	!	!	!LO:TX:t=P:problem=cross-measure beam	!	!
8GG\J	8dJ 8B 8G^/	.	(8ggL 8b/	.	.
=133	=133	=133	=133	=133	=133
(16CC/LL	4e 4c 4G^>/	f	16eeJk 16g/)	.	.
16C/	.	.	16r	.	.
16CC/	.	.	8g 8c\	.	.
16C/	.	.	.	.	.
16CC/	8r	.	(8eeL 8cc/	.	.
16C/JJ)	.	.	.	.	.
(16CC/LL	4e 4B 4G^>/	.	8eeJ 8b/)	.	.
16C/	.	.	.	.	.
16CC/	.	.	8g 8c\	.	.
16C/	.	.	.	.	.
!	!	!	!LO:TX:t=P:problem=cross-measure beam	!	!
16CC/	8r	.	(8eeL 8b/	.	.
16C/JJ)	.	.	.	.	.
!!LO:LB:g=original
=134	=134	=134	=134	=134	=134
(16CC/LL	4e 4B-X 4G^>/	.	8eeJ 8b-X/)	.	.
16C/	.	.	.	.	.
16CC/	.	.	8g 8c\	.	.
16C/	.	.	.	.	.
16CC/	8r	.	(8eeL 8b-/	.	.
16C/JJ)	.	.	.	.	.
(16CC/LL	4e 4Bn 4G^>/	.	8eeJ 8bn/)	.	.
16C/	.	.	.	.	.
16CC/	.	.	8g 8c\	.	.
16C/	.	.	.	.	.
!	!	!	!LO:TX:t=P:problem=cross-measure beam	!	!
16CC/	8r	.	(8eeL 8b/	.	.
16C/JJ)	.	.	.	.	.
=135	=135	=135	=135	=135	=135
(16CC/LL	4e 4c 4G^>/	.	8eeJ 8cc/)	.	.
16C/	.	.	.	.	.
16CC/	.	.	8g 8c\	.	.
16C/	.	.	.	.	.
16CC/	8r	.	(8eeL 8cc/	.	.
16C/JJ)	.	.	.	.	.
(16CC/LL	4e 4B 4G^>/	.	8eeJ 8b/)	.	.
16C/	.	.	.	.	.
16CC/	.	.	8g 8c\	.	.
16C/	.	.	.	.	.
!	!	!	!LO:TX:t=P:problem=cross-measure beam	!	!
16CC/	8r	.	(8eeL 8b/	.	.
16C/JJ)	.	.	.	.	.
=136	=136	=136	=136	=136	=136
(16CC/LL	4e 4B-X 4G^>/	.	8eeJ 8b-X/)	.	.
16C/	.	.	.	.	.
16CC/	.	.	8g 8c\	.	.
16C/	.	.	.	.	.
16CC/	8r	.	(8bb-XL 8b-/	.	.
16C/JJ)	.	.	.	.	.
!	!	!LO:DY:rj	!	!	!
8CC/L	8b-XL 8e 8c^/	f	8eeeJ 8ee/)	.	.
8C 8CC/	8b- 8e 8c^/	.	8g 8c\	.	.
!	!	!	!LO:TX:t=P:problem=cross-measure beam	!	!
8CJ 8CC/	8b-J 8e 8c^/	.	(8bb-L 8b-/	.	.
=137	=137	=137	=137	=137	=137
8r	8r	.	8bbnJ 8bn/)	.	.
8r	8r	.	8f# 8B\	.	.
8BBB 8DD#X 8FF# 8BB/	8bn 8f# 8d#X 8Bn/	sf	(8ff#L 8b/	.	.
8r	8r	.	8bbJ 8dd#X/)	.	.
8r	8r	.	8f# 8B\	.	.
!	!	!	!LO:TX:t=P:problem=cross-measure beam	!	!
8BBB 8DD# 8FF# 8BB	8b 8f# 8d# 8B/	sf	(8ff#L 8b/	.	.
!!LO:LB:g=original
=138	=138	=138	=138	=138	=138
8r	8r	.	8bbJ 8dd#X/)	.	.
8r	8r	.	8f# 8B\	.	.
8BBB 8DD#X 8FF# 8BB	8b 8f# 8d#X 8B/	sf	(8ff#L 8b/	.	.
8r	8r	.	8bbJ 8dd#/)	.	.
8r	8r	.	8f# 8B\	.	.
!	!	!	!LO:TX:t=P:problem=cross-measure beam	!	!
8BBB 8DD# 8FF# 8BB	8b 8f# 8d# 8B/	sf	(8ff#L 8a/	.	.
=139	=139	=139	=139	=139	=139
8r	8r	.	8bbJ 8dd#X/)	.	.
8BBB 8DD#X 8FF# 8BB	8b 8f# 8d#X 8B/	sf	(8f#L 8B/	.	.
8r	8r	.	8bbJ 8dd#/)	.	sf
8BBB 8DD# 8FF# 8BB	8b 8f# 8d# 8B/	sf	(8f#L 8B/	.	.
8r	8r	.	8bbJ 8dd#/)	.	sf
!	!	!	!LO:TX:t=P:problem=cross-measure beam	!	!
8BBB 8DD# 8FF# 8BB	8b 8f# 8d# 8B/	sf	(8f#L 8B/	.	.
=140	=140	=140	=140	=140	=140
8r	8r	.	8bbJ 8dd#X/)	.	sf
8BBB 8DD#X 8FF# 8BB	8b 8f# 8d#X 8B/	sf	(8f#L 8B/	.	.
8r	8r	.	8bbJ 8dd#/)	.	sf
8BBB 8DD# 8FF# 8BB	8b 8f# 8d# 8B/	sf	(8f#L 8B/	.	.
8r	8r	.	8bbJ 8dd#/)	.	sf
!	!	!	!LO:TX:t=P:problem=cross-measure beam	!	!LO:HP:a
8r	8r	.	(8f#L 8B/	.	<
=141	=141	=141	=141	=141	=141
[[32qqGGG/LLL	[[32qqG/LLL	.	.	.	.
32qqCC#X/	[[32qqB/	f	.	.	.
32qqDD/JJJ	32qqc#X/JJJ	.	.	.	.
8GG 8DD 8GGG`>]]/	8d 8B]] 8G]]`>/	sf	16ddnJk 16b/)	.	[ ff
.	.	.	16r	.	.
8r	8r	.	8d 8G\	.	.
!	!	!	!	!	!LO:HP:a
8r	8r	.	(8cc#XL 8a#X/	.	<
[[32qqGGG/LLL	[[32qqG/LLL	.	.	.	.
32qqCC#/	[[32qqB/	.	.	.	.
32qqDD/JJJ	32qqc#/JJJ	.	.	.	.
8GG 8DD 8GGG`>]]/	8d 8B]] 8G]]`>/	sf	16ddJk 16b/)	.	[
.	.	.	16r	.	.
8r	8r	.	8d 8G\	.	.
!	!	!	!LO:TX:t=P:problem=cross-measure beam	!	!LO:HP:a
8r	8r	.	(8cc#L 8a#/	.	<
=142	=142	=142	=142	=142	=142
[[32qqGGG/LLL	[[32qqG/LLL	.	.	.	.
32qqCC#X/	[[32qqB/	.	.	.	.
[32qqDD/JJJ	32qqc#X/JJJ	.	.	.	.
8GG 8DD]] 8GGG]]`>/	8d 8B]] 8G]]`>/	sf	16ddJk 16b/)	.	[
.	.	.	16r	.	.
8r	8r	.	8d 8G\	.	.
8r	8r	.	(8cc#XL 8a#X/	.	.
[[32qqGGG/LLL	[[32qqG/LLL	.	.	.	.
32qqCC#/	[[32qqB/	.	.	.	.
[32qqDD/JJJ	32qqc#/JJJ	.	.	.	.
8GG 8DD] 8GGG]]`>/	8d 8B]] 8G]]`>/	sf	16ddJk 16b/)	.	.
.	.	.	16r	.	.
8r	8r	.	8d 8G\	.	.
!	!	!	!LO:TX:t=P:problem=cross-measure beam	!	!
8r	8r	.	(8ggL 8b/	.	.
!!LO:LB:g=original
=143	=143	=143	=143	=143	=143
[[32qqGGG/LLL	[[32qqA/LLL	.	.	.	.
32qqCC#X/	[[32qqcn/	.	.	.	.
[32qqDD/JJJ	[32qqd/JJJ	.	.	.	.
8GG 8DD 8GGG]]/	8f# 8d] 8c]] 8A]]/	sf	16aanJk 16ccn/)	.	.
.	.	.	16r	.	.
8r	8r	.	8d 8G\	.	.
8r	8r	.	(8gg#XL 8b/	.	.
[[32qqGGG/LLL	[[32qqA/LLL	.	.	.	.
32qqCC#/	[[32qqc/	.	.	.	.
[32qqDD/JJJ	[32qqd/JJJ	.	.	.	.
8GG 8DD] 8GGG]]/	8f# 8d] 8c]] 8A]]/	sf	16aaJk 16cc/)	.	.
.	.	.	16r	.	.
8r	8r	.	8d 8Gn\	.	.
!	!	!	!LO:TX:t=P:problem=cross-measure beam	!	!
8r	8r	.	(8aa#XL 8cc#X/	.	.
=144	=144	=144	=144	=144	=144
[[32qqGGG/LLL	[[32qqG/LLL	.	.	.	.
32qqCC#X/	[[32qqB/	.	.	.	.
[32qqDD/JJJ	[32qqd/JJJ	.	.	.	.
8GG 8DD] 8GGG]]/	8g 8d] 8B]] 8G]]/	sf	16bbJk 16dd/)	.	.
.	.	.	16r	.	.
8r	8r	.	8d 8G\	.	.
8r	8r	.	(8aanL 8ccn/	.	.
[[32qqGGG/LLL	[[32qqG/LLL	.	.	.	.
32qqCC#/	[[32qqB/	.	.	.	.
[32qqDD/JJJ	[32qqd/JJJ	.	.	.	.
8GG 8DD] 8GGG]]/	8g 8d] 8B]] 8G]]/	sf	16ggJk 16b/)	.	.
.	.	.	16r	.	.
8r	8r	.	8d 8G\	.	.
!	!	!	!LO:TX:t=P:problem=cross-measure beam	!	!
8r	8r	.	(8eeL 8cc/	.	.
=145	=145	=145	=145	=145	=145
[[32qqGGG/LLL	[[32qqG/LLL	.	.	.	.
32qqCC#X/	[[32qqB/	.	.	.	.
[32qqDD/JJJ	32qqc#X/JJJ	.	.	.	.
8GG 8DD] 8GGG]]/	8d 8B]] 8G]]/	sf	16ddJk 16b/)	.	.
.	.	.	16r	.	.
8r	8r	.	8d 8G\	.	.
8r	8r	.	(8cc#XL 8a#X/	.	.
[32qqGGG/LLL	[[32qqG/LLL	.	.	.	.
32qqCC#/	[[32qqB/	.	.	.	.
[32qqDD/JJJ	32qqc#/JJJ	.	.	.	.
8GG 8DD] 8GGG]]/	8d 8B]] 8G]]/	sf	16ddJk 16b/)	.	.
.	.	.	16r	.	.
8r	8r	.	8d 8G\	.	.
!	!	!	!LO:TX:t=P:problem=cross-measure beam	!	!
8r	8r	.	(8cc#L 8a#/	.	.
=146	=146	=146	=146	=146	=146
[[32qqGGG/LLL	[[32qqG/LLL	.	.	.	.
32qqCC#X/	[[32qqB/	.	.	.	.
[32qqDD/JJJ	32qqc#X/JJJ	.	.	.	.
8GG 8DD] 8GGG]]/	8d 8B]] 8G]]/	sf	16ddJk 16b/)	.	.
.	.	.	16r	.	.
8r	8r	.	8d 8G\	.	.
8r	8r	.	(8cc#XL 8a#X/	.	.
[[32qqGGG/LLL	[[32qqG/LLL	.	.	.	.
32qqCC#/	[[32qqB/	.	.	.	.
[32qqDD/JJJ	32qqc#/JJJ	.	.	.	.
8GG 8DD] 8GGG]]/	8d 8B]] 8G]]/	sf	16ddJk 16b/)	.	.
.	.	.	16r	.	.
8r	8r	.	8d 8G\	.	.
!	!	!	!LO:TX:t=P:problem=cross-measure beam	!	!
8r	8r	.	(8ggL 8b/	.	.
!!LO:PB:g=original
=147	=147	=147	=147	=147	=147
[[32qqGGG/LLL	[[32qqA/LLL	.	.	.	.
32qqCC#X/	[[32qqc/	.	.	.	.
[32qqDD/JJJ	[32qqd/JJJ	.	.	.	.
8GG 8DD] 8GGG]]/	8f# 8d] 8c]] 8A]]/	sf	16aanJk 16ccn/)	.	.
.	.	.	16r	.	.
8r	8r	.	8d 8G\	.	.
8r	8r	.	(8gg#XL 8b/	.	.
[[32qqGGG/LLL	[[32qqA/LLL	.	.	.	.
32qqCC#/	[[32qqc/	.	.	.	.
[32qqDD/JJJ	[32qqd/JJJ	.	.	.	.
8GG 8DD] 8GGG]]/	8f# 8d] 8c]] 8A]]/	sf	16aaJk 16cc/)	.	.
.	.	.	16r	.	.
8r	8r	.	8d 8Gn\	.	.
!	!	!	!LO:TX:t=P:problem=cross-measure beam	!	!
8r	8r	.	(8bbL 8dd/	.	.
=148	=148	=148	=148	=148	=148
[[32qqGGG/LLL	[[32qqG/LLL	.	.	.	.
32qqCC#X/	[[32qqB/	.	.	.	.
[32qqDD/JJJ	[32qqd/JJJ	.	.	.	.
8GG 8DD] 8GGG]]/	8g 8d] 8B]] 8G]]/	sf	16ggnJk 16b/)	.	.
.	.	.	16r	.	.
8r	8r	.	8d 8G\	.	.
8r	8r	.	(8dddL 8dd/	.	.
8GG 8DD 8GGG/`	8gg 8dd 8b 8g\`	sf	16gggJk 16gg/)	.	sf
.	.	.	16r	.	.
8r	8r	.	8r	.	.
8r	8r	.	8r	.	.
=149	=149	=149	=149	=149	=149
*	*^	*	*	*	*
[[32qqGGG/LLL	.	.	.	.	.	.
32qqCC#X/	.	.	.	.	.	.
[32qqDD/JJJ	.	.	.	.	.	.
!	!	!	!LO:DY:rj	!LO:TX:b:i:t=con fuoco.	!	!
8GG 8DD] 8GGG]]`>/	4dd 4d^</	4.b 4.g\	ff	8ddd 8b/	.	ff
8r	.	.	.	8d 8G\	.	.
!	!	!	!	!	!	!LO:HP:a
8r	8ee 8e/	.	.	(8ccc#XL 8a#X/	.	<
[[32qqGGG/LLL	.	.	.	.	.	.
32qqCC#/	.	.	.	.	.	.
[32qqDD/JJJ	.	.	.	.	.	.
8GG 8DD] 8GGG]]`>/	4dd 4d^</	4.b 4.g\	.	8dddJ 8b/)	.	[
8r	.	.	.	8d 8G\	.	.
!	!	!	!	!LO:TX:t=P:problem=cross-measure beam	!	!LO:HP:a
8r	8ee 8e/	.	.	(8ccc#L 8a#/	.	<
=150	=150	=150	=150	=150	=150	=150
[[32qqGGG/LLL	.	.	.	.	.	.
32qqCC#X/	.	.	.	.	.	.
[32qqDD/JJJ	.	.	.	.	.	.
8GG 8DD] 8GGG]]`>/	4dd 4d^</	4.b 4.g\	.	8dddJ 8b/)	.	[
8r	.	.	.	8d 8G\	.	.
!	!	!	!	!	!	!LO:HP:a
8r	8ee 8e/	.	.	(8ccc#XL 8a#X/	.	<
[[32qqGGG/LLL	.	.	.	.	.	.
32qqCC#/	.	.	.	.	.	.
[32qqDD/JJJ	.	.	.	.	.	.
8GG 8DD] 8GGG]]`>/	4dd 4b 4g 4d^</	4ryy	.	8dddJ 8b/)	.	[
8r	.	.	.	8d 8G\	.	.
!	!	!	!	!LO:TX:t=P:problem=cross-measure beam	!	!LO:HP:a
8r	8r	8ryy	.	(8eeeL 8ccn/	.	<
*	*v	*v	*	*	*	*
=151	=151	=151	=151	=151	=151
[[32qqGGG/LLL	.	.	.	.	.
32qqCC#X/	.	.	.	.	.
[32qqDD/JJJ	.	.	.	.	.
8GG 8DD] 8GGG`>]]/	4.dd 4.cc 4.a 4.f# 4.d^/	.	8fff#J 8dd/)	.	[
8r	.	.	8d 8G\	.	.
!	!	!	!	!	!LO:HP:a
8r	.	.	(8gggL 8ee/	.	<
[[32qqGGG/LLL	.	.	.	.	.
32qqCC#/	.	.	.	.	.
[32qqDD/JJJ	.	.	.	.	.
8GG 8DD] 8GGG]]/	4.dd 4.cc 4.a 4.f# 4.d^/	.	8ggg#XJ 8ee#X/)	.	[
8r	.	.	8d 8Gn\	.	.
!	!	!	!LO:TX:t=P:problem=cross-measure beam	!	!LO:HP:a
8r	.	.	(8aaaL 8ff#/	.	<
!!LO:LB:g=original
=152	=152	=152	=152	=152	=152
[[32qqGGG/LLL	.	.	.	.	.
32qqCC#X/	.	.	.	.	.
[32qqDD/JJJ	.	.	.	.	.
8GG 8DD] 8GGG]]/	4.dd 4.b 4.g 4.d/	.	8bbbJ 8ggn/)	.	[
8r	.	.	8d 8G\	.	.
8r	.	.	(8aaaL 8ff#/	.	.
[[32qqGGG/LLL	.	.	.	.	.
32qqCC#/	.	.	.	.	.
[32qqDD/JJJ	.	.	.	.	.
8GG 8DD] 8GGG]]/	4.dd 4.b 4.g 4.d/	.	8gggJ 8een/)	.	.
8r	.	.	8d 8G\	.	.
!	!	!	!LO:TX:t=P:problem=cross-measure beam	!	!
8r	.	.	(8eeeL 8cc/	.	.
=153	=153	=153	=153	=153	=153
*	*^	*	*	*	*
[[32qqGGG/LLL	.	.	.	.	.	.
32qqCC#X/	.	.	.	.	.	.
[32qqDD/JJJ	.	.	.	.	.	.
8GG 8DD] 8GGG]]/	4dd 4d^</	4.b 4.g\	.	8dddJ 8b/)	.	.
8r	.	.	.	8d 8G\	.	.
!	!	!	!	!	!	!LO:HP:a
8r	8ee 8e/	.	.	(8ccc#XL 8a#X/	.	<
[[32qqGGG/LLL	.	.	.	.	.	.
32qqCC#/	.	.	.	.	.	.
[32qqDD/JJJ	.	.	.	.	.	.
8GG 8DD] 8GGG]]/	4dd 4d^</	4.b 4.g\	.	8dddJ 8b/)	.	[
8r	.	.	.	8d 8G\	.	.
!	!	!	!	!LO:TX:t=P:problem=cross-measure beam	!	!LO:HP:a
8r	8ee 8e/	.	.	(8ccc#L 8a#/	.	<
=154	=154	=154	=154	=154	=154	=154
[[32qqGGG/LLL	.	.	.	.	.	.
32qqCC#X/	.	.	.	.	.	.
[32qqDD/JJJ	.	.	.	.	.	.
8GG 8DD] 8GGG]]/	4dd 4d^</	4.b 4.g\	.	8dddJ 8b/)	.	[
8r	.	.	.	8d 8G\	.	.
8r	8ee 8e/	.	.	(8ccc#XL 8a#X/	.	.
[[32qqGGG/LLL	.	.	.	.	.	.
32qqCC#/	.	.	.	.	.	.
[32qqDD/JJJ	.	.	.	.	.	.
8GG 8DD] 8GGG]]/	4dd 4b 4g 4d^/	4ryy	.	8dddJ 8b/)	.	.
8r	.	.	.	8d 8G\	.	.
!	!	!	!	!LO:TX:t=P:problem=cross-measure beam	!	!
8r	8r	8ryy	.	(8eeeL 8ccn/	.	.
*	*v	*v	*	*	*	*
=155	=155	=155	=155	=155	=155
[[32qqGGG/LLL	.	.	.	.	.
32qqCC#X/	.	.	.	.	.
[32qqDD/JJJ	.	.	.	.	.
8GG 8DD] 8GGG]]/	4.dd 4.cc 4.a 4.f# 4.d^/	.	8fff#J 8dd/)	.	.
8r	.	.	8d 8G\	.	.
8r	.	.	(8gggL 8ee/	.	.
[[32qqGGG/LLL	.	.	.	.	.
32qqCC#/	.	.	.	.	.
[32qqDD/JJJ	.	.	.	.	.
8GG 8DD] 8GGG]]/	4.dd 4.cc 4.a 4.f# 4.d^/	.	8ggg#XJ 8ee#X/)	.	.
8r	.	.	8d 8G\	.	.
!	!	!	!LO:TX:t=P:problem=cross-measure beam	!	!
8r	.	.	(8aaaL 8ff#/	.	.
=156	=156	=156	=156	=156	=156
*	*^	*	*	*	*
[[32qqGGG/LLL	.	.	.	.	.	.
32qqCC#X/	.	.	.	.	.	.
[32qqDD/JJJ	.	.	.	.	.	.
!	!	!	!LO:DY:rj	!	!	!
8GG 8DD] 8GGG]]/	4dd 4d^</	4.b 4.g\	ff	8bbbJ 8gg/)	.	.
8r	.	.	.	8d 8G\	.	.
8r	8ee 8e/	.	.	(8aaa#XL 8ff#/	.	.
[[32qqGGG/LLL	.	.	.	.	.	.
32qqCC#/	.	.	.	.	.	.
[32qqDD/JJJ	.	.	.	.	.	.
8GG 8DD] 8GGG]]/	4dd 4d^</	4.b 4.g\	.	8bbbJ 8gg/)	.	.
8r	.	.	.	8d 8G\	.	.
!	!	!	!	!LO:TX:t=P:problem=cross-measure beam	!	!
8r	8ee 8e/	.	.	(8aaa#L 8ff#/	.	.
!!LO:LB:g=original
=157	=157	=157	=157	=157	=157	=157
[[32qqGGG/LLL	.	.	.	.	.	.
32qqCC#X/	.	.	.	.	.	.
[32qqDD/JJJ	.	.	.	.	.	.
8GG 8DD] 8GGG]]/	4dd 4d^</	4.b 4.g\	.	8bbbJ 8gg/)	.	.
8r	.	.	.	8d 8G\	.	.
!	!	!	!	!	!	!LO:HP:a
8r	8ee 8e/	.	.	(8aaa#XL 8ff#/	.	<
[[32qqGGG/LLL	.	.	.	.	.	.
32qqCC#/	.	.	.	.	.	.
[32qqDD/JJJ	.	.	.	.	.	.
8GG 8DD] 8GGG]]/	4dd 4d^</	4.b 4.g\	.	8bbbJ 8gg/)	.	[
8r	.	.	.	8d 8G\	.	.
!	!	!	!	!LO:TX:t=P:problem=cross-measure beam	!	!LO:HP:a
8r	8ee 8e/	.	.	(8aaa#L 8ff#/	.	<
=158	=158	=158	=158	=158	=158	=158
[[32qqGGG/LLL	.	.	.	.	.	.
32qqCC#X/	.	.	.	.	.	.
[32qqDD/JJJ	.	.	.	.	.	.
8GG 8DD] 8GGG]]/	4dd 4d^</	4.b 4.g\	.	8bbbJ 8gg/)	.	[
8r	.	.	.	8d 8G\	.	.
!	!	!	!	!	!	!LO:HP:a
8r	8e/	.	.	(8aa#XL (8cc#X/	.	<
[[32qqGGG/LLL	.	.	.	.	.	.
32qqCC#/	.	.	.	.	.	.
[32qqDD/JJJ	.	.	.	.	.	.
!	!	!	!LO:DY:rj	!	!	!
8GG 8DD] 8GGG]]/	4d^/	4.B 4.G\	f	8bbJ 8dd/))	.	[
8r	.	.	.	8d 8G\	.	.
!	!	!	!	!LO:TX:t=P:problem=cross-measure beam	!	!LO:HP:a
8r	8e/	.	.	(8aa#L 8cc#/	.	<
=159	=159	=159	=159	=159	=159	=159
[[32qqGGG/LLL	.	.	.	.	.	.
32qqCC#X/	.	.	.	.	.	.
[32qqDD/JJJ	.	.	.	.	.	.
8GG 8DD] 8GGG]]/	4d^/	4.B 4.G\	.	8bbJ 8dd/)	.	[
8r	.	.	.	8d 8G\	.	.
!	!	!	!	!	!	!LO:HP:a
8r	8e/	.	.	(8aa#XL 8cc#X/	.	<
[[32qqGGG/LLL	.	.	.	.	.	.
32qqCC#/	.	.	.	.	.	.
[32qqDD/JJJ	.	.	.	.	.	.
8GG 8DD] 8GGG]]/	4d^/	4.B 4.G\	.	8bbJ 8dd/)	.	[
8r	.	.	.	8d 8G\	.	.
!	!	!	!	!LO:TX:t=P:problem=cross-measure beam	!	!LO:HP:a
8r	8e/	.	.	(8aa# 8cc#/	.	<
=160	=160	=160	=160	=160	=160	=160
[[32qqGGG/LLL	.	.	.	.	.	.
32qqCC#X/	.	.	.	.	.	.
[32qqDD/JJJ	.	.	.	.	.	.
!	!LO:TX:b:Bi:t=de_cres_cen_do:problem=dynamics with extention lines	!	!LO:HP:t=de_cres_cen_do	!	!	!
8GG 8DD] 8GGG]]/	4.d^/	4B 4G\	>	8bb 8dd/)	.	[
8r	.	.	.	8d 8G\	.	.
!	!	!	!	!	!	!LO:HP:a
8r	.	8c 8F#\	.	(8aanL 8ccn/	.	<
[[32qqGGG/LLL	.	.	.	.	.	.
32qqCC#/	.	.	.	.	.	.
[32qqDD/JJJ	.	.	.	.	.	.
8GG 8DD] 8GGG]]/	4.d^/	4B 4G\	.	8ggJ 8b/)	.	[
8r	.	.	.	8d 8G^<\	.	.
!	!	!	!	!LO:TX:t=P:problem=cross-measure beam	!	!LO:DY:a
8r	.	8c 8F#\	.	(8aaL 8cc/	.	<
=161	=161	=161	=161	=161	=161	=161
*	*	*	*	*	*	*^
[[32qqGGG/LLL	.	.	.	.	.	.	.
32qqCC#X/	.	.	.	.	.	.	.
[32qqDD/JJJ	.	.	.	.	.	.	.
8GG 8DD] 8GGG]]/	4.d^/	4B 4G\	.	8ggJ 8b/)	.	[	.
8r	.	.	.	8d 8G^<\	.	.	.
!	!	!	!	!	!	!LO:HP:a	!
8r	.	8c 8F#\	.	(8eeL 8cc/	.	<	.
[[32qqGGG/LLL	.	.	.	.	.	.	.
32qqCC#/	.	.	.	.	.	.	.
[32qqDD/JJJ	.	.	.	.	.	.	.
8GG 8DD] 8GGG]]/	4.d^/	4B 4G\	.	8ddJ 8b/)	.	[	.
8r	.	.	.	8d 8G^<\	.	.	.
!	!	!	!	!LO:TX:t=P:problem=cross-measure beam	!	!LO:HP:a	!
8r	.	8c 8F#\	.	(8eeL 8cc/	.	<	.
!!LO:LB:g=original
=162	=162	=162	=162	=162	=162	=162	=162
[[32qqGGG/LLL	.	.	.	.	.	.	.
32qqCC#X/	.	.	.	.	.	.	.
[32qqDD/JJJ	.	.	.	.	.	.	.
!	!	!	!	!	!	!	!LO:HP:a
8GG 8DD] 8GGG]]/	4.d^/	4B 4G\	.	8ddJ 8b/)	.	[	>
8r	.	.	.	8d 8G^\	.	]	.
!	!	!	!	!	!	!LO:HP:a	!
8r	.	8c 8F#\	.	(8ccL (8a/	.	<	.
[[32qqGGG/LLL	.	.	.	.	.	.	.
32qqCC#/	.	.	.	.	.	.	.
[32qqDD/JJJ	.	.	.	.	.	.	.
8GG 8DD] 8GGG]]/	4.d^/	4B 4G\	.	8bJ 8g/))	.	[	.
8r	.	.	.	8d 8G^\	.	.	.
!	!	!	!	!LO:TX:t=P:problem=cross-measure beam	!	!LO:HP:a	!
8r	.	8c 8F#\	.	(8aL 8c/	.	<	.
=163	=163	=163	=163	=163	=163	=163	=163
[[32qqGGG/LLL	.	.	.	.	.	.	.
32qqCC#X/	.	.	.	.	.	.	.
[32qqDD/JJJ	.	.	.	.	.	.	.
8GG 8DD] 8GGG]]/	4.d^/	4B 4G\	]	8gJ 8B/)	.	[	.
8r	.	.	.	8d 8G^\	.	.	.
!	!	!	!	!	!	!LO:HP:a	!
8r	.	8c 8F#\	.	(8aL (8c/	.	<	.
[[32qqGGG/LLL	.	.	.	.	.	.	.
32qqCC#/	.	.	.	.	.	.	.
[32qqDD/JJJ	.	.	.	.	.	.	.
8GG 8DD] 8GGG]]/	4.d^/	4B 4G\	.	8gJ 8B/))	.	[	.
8r	.	.	.	8d 8G^\	.	.	.
!	!	!	!	!LO:TX:t=P:problem=cross-measure beam	!	!LO:HP:a	!
8r	.	8c 8F#\	.	(8aL 8c/	.	<	]]
*	*v	*v	*	*	*	*	*
=164	=164	=164	=164	=164	=164	=164
*tremolo	*	*	*	*	*	*
(32GGLLL 32DD 32BBB/	4.d 4.B 4.G/	<	8gJ 8B/)	.	.	.
32GGG/	.	.	.	.	.	.
32GG 32DD 32BBB/	.	.	.	.	.	.
32GGG/	.	.	.	.	[	.
32GG 32DD 32BBB/	.	.	8dL 8G^/	.	.	.
32GGG/	.	.	.	.	.	.
32GG 32DD 32BBB/	.	.	.	.	.	.
32GGG/	.	.	.	.	.	.
!	!	!	!	!	!	!LO:HP:a
32GG 32DD 32BBB/	.	.	8bJ 8g/	.	sf	<
32GGG/	.	.	.	.	.	.
32GG 32DD 32BBB/	.	.	.	.	.	.
32GGG/	.	.	.	.	.	.
32GG 32DD 32BBB/	4.b 4.g 4.d 4.B^/	.	8dL 8G^/	.	.	.
32GGG/	.	.	.	.	.	.
32GG 32DD 32BBB/	.	.	.	.	.	.
32GGG/	.	.	.	.	.	.
32GG 32DD 32BBB/	.	.	8ddJ 8b/	.	sf	.
32GGG/	.	.	.	.	.	.
32GG 32DD 32BBB/	.	.	.	.	.	.
32GGG/	.	.	.	.	.	.
!	!	!	!LO:TX:t=P:problem=cross-measure beam	!	!	!
32GG 32DD 32BBB/	.	.	8dL 8G^/	.	.	.
32GGG/	.	.	.	.	.	.
32GG 32DD 32BBB/	.	.	.	.	.	.
32GGG/JJJ)	.	[[	.	.	.	.
=165	=165	=165	=165	=165	=165	=165
(32GGLLL 32DD 32BBB/	4.dd 4.b 4.g 4.d^/	f	8ggJ 8b/	.	sf	.
32GGG/	.	.	.	.	.	.
32GG 32DD 32BBB/	.	.	.	.	.	.
32GGG/	.	.	.	.	.	.
32GG 32DD 32BBB/	.	.	8dL 8G^/	.	.	.
32GGG/	.	.	.	.	.	.
32GG 32DD 32BBB/	.	.	.	.	.	.
32GGG/	.	.	.	.	.	.
32GG 32DD 32BBB/	.	.	8bbJ 8b/	.	sf	.
32GGG/	.	.	.	.	.	.
32GG 32DD 32BBB/	.	.	.	.	.	.
32GGG/	.	.	.	.	.	.
32GG 32DD 32BBB/	4.gg 4.dd 4.b 4.g^\	.	8dL 8G^/	.	.	.
32GGG/	.	.	.	.	.	.
32GG 32DD 32BBB/	.	.	.	.	.	.
32GGG/	.	.	.	.	.	.
32GG 32DD 32BBB/	.	.	8dddJ 8dd/	.	sf	.
32GGG/	.	.	.	.	.	.
32GG 32DD 32BBB/	.	.	.	.	.	.
32GGG/	.	.	.	.	.	.
!	!	!	!LO:TX:t=P:problem=cross-measure beam	!	!	!
32GG 32DD 32BBB/	.	.	8dL 8G^/	.	.	[
32GGG/	.	.	.	.	.	.
32GG 32DD 32BBB/	.	.	.	.	.	.
32GGG/JJJ)	.	.	.	.	.	.
=166	=166	=166	=166	=166	=166	=166
(32GGLLL 32DD 32BBB/	4.bb 4.gg 4.dd 4.b^\	<	8gggJ 8gg/	.	sf	.
32GGG/	.	.	.	.	.	.
32GG 32DD 32BBB/	.	.	.	.	.	.
32GGG/	.	.	.	.	.	.
32GG 32DD 32BBB/	.	.	8dL 8G^/	.	.	.
32GGG/	.	.	.	.	.	.
32GG 32DD 32BBB/	.	.	.	.	.	.
32GGG/	.	.	.	.	.	.
32GG 32DD 32BBB/	.	.	8bbbJ 8bb/	.	.	.
32GGG/	.	.	.	.	.	.
32GG 32DD 32BBB/	.	.	.	.	.	.
32GGG/	.	.	.	.	.	.
32GG 32DD 32BBB/	4.ddd 4.bb 4.gg 4.dd^\	.	8dL 8G^/	.	.	.
32GGG/	.	.	.	.	.	.
32GG 32DD 32BBB/	.	.	.	.	.	.
32GGG/	.	.	.	.	.	.
32GG 32DD 32BBB/	.	.	8ddddJ 8ddd/	.	.	.
32GGG/	.	.	.	.	.	.
32GG 32DD 32BBB/	.	.	.	.	.	.
32GGG/	.	.	.	.	.	.
!	!	!	!LO:TX:t=P:problem=cross-measure beam	!	!	!
32GG 32DD 32BBB/	.	.	8dL 8G^/	.	.	.
32GGG/	.	.	.	.	.	.
32GG 32DD 32BBB/	.	.	.	.	.	.
32GGG/JJJ)	.	[[	.	.	.	.
*Xtremolo	*	*	*	*	*	*
*	*	*	*	*	*v	*v
=167	=167	=167	=167	=167	=167
8GG 8DD 8BBB 8GGG/	8ggg 8ddd 8bb 8gg\	sff	8ggggJ 8ggg/	.	ff
8r	8r	.	8d 8G/	.	sff
8r	8r	.	8r	.	.
4r	4r	.	4r	.	.
!LO:TX:b:i:t=Fine.	!	!	!	!	!
8r;	8r;	.	8r;	.	.
==	==	==	==	==	==
*-	*-	*-	*-	*-	*-
!!!system-decoration: <s1>{(s2,s3)}
!!!RDF**kern: > = above
!!!RDF**kern: < = below
!!!ENC: Berenika Jozajtis
!!!END: 2022-02-20
!!!ENC: Andrzej Kubiczek
!!!END: 2022-03-11
